;FLAVOR:RepRap
;TIME:7108
;Generated with Cura_SteamEngine 2.3.1
M104 S310
M109 S310
G21 ;metric values
G90 ;absolute positioning
M82 ;set extruder to absolute mode
M107 ;start with the fan off
G28 X0 Y0 ;move X/Y to min endstops
G28 Z0 ;move Z to min endstops
G1 Z0.0 F9000 ;move the platform down 15mm
G92 E0 ;zero the extruded length
G1 F200 E3 ;extrude 3mm of feed stock
G92 E0 ;zero the extruded length again
G1 F9000
M117 Printing...
;LAYER_COUNT:134
;LAYER:0
M107
G1 F600 E-6
G1 Z20.5
G0 F1800 X54.704 Y67.991 Z.7
;TYPE:SKIRT
G1 Z.2
G1 F600 E0
G1 F1800 X55.097 Y67.673 E0.01681
G1 X55.535 Y67.42 E0.03364
G1 X56.007 Y67.24 E0.05044
G1 X56.502 Y67.136 E0.06726
G1 X56.903 Y67.11 E0.08063
G1 X61.196 Y67.101 E0.22341
G1 X66.765 Y66.944 E0.40871
G1 X69.334 Y66.764 E0.49437
G1 X69.704 Y66.759 E0.50668
G1 X77.443 Y67.114 E0.76435
G1 X77.946 Y67.178 E0.78121
G1 X82.344 Y68.09 E0.9306
G1 X87.774 Y68.94 E1.1134
G1 X93.238 Y69.479 E1.29602
G1 X98.686 Y69.708 E1.47738
G1 X104.174 Y69.627 E1.65993
G1 X109.632 Y69.237 E1.84193
G1 X115.05 Y68.541 E2.02361
G1 X122.092 Y67.17 E2.26223
G1 X122.54 Y67.115 E2.27724
G1 X129.272 Y66.77 E2.50144
G1 X129.566 Y66.769 E2.51122
G1 X137.482 Y67.091 E2.77472
G1 X143.102 Y67.111 E2.96165
G1 X143.606 Y67.153 E2.97847
G1 X144.097 Y67.273 E2.99528
G1 X144.563 Y67.47 E3.01211
G1 X144.992 Y67.737 E3.02891
G1 X145.374 Y68.068 E3.04573
G1 X145.698 Y68.456 E3.06254
G1 X145.958 Y68.89 E3.07937
G1 X146.146 Y69.359 E3.09617
G1 X146.258 Y69.852 E3.11299
G1 X146.29 Y70.228 E3.12554
G1 X146.456 Y76.634 E3.33867
G1 X146.921 Y82.1 E3.52113
G1 X147.692 Y87.506 E3.70275
G1 X148.775 Y92.911 E3.8861
G1 X149.412 Y95.506 E3.97497
G1 X150.571 Y99.633 E4.11754
G1 X150.669 Y100.129 E4.13436
G1 X150.69 Y100.498 E4.14665
G1 X150.689 Y110.503 E4.47942
G1 X150.66 Y110.934 E4.49379
G1 X149.674 Y118.187 E4.73724
G1 X149.289 Y123.629 E4.9187
G1 X149.19 Y129.543 E5.11543
G1 X149.141 Y130.047 E5.13227
G1 X149.014 Y130.536 E5.14907
G1 X148.812 Y130.999 E5.16587
G1 X148.539 Y131.425 E5.1827
G1 X148.202 Y131.802 E5.19952
G1 X147.811 Y132.122 E5.21632
G1 X147.373 Y132.376 E5.23316
G1 X146.902 Y132.557 E5.24995
G1 X146.407 Y132.663 E5.26678
G1 X145.99 Y132.69 E5.28068
G1 X122.006 Y132.689 E6.07839
G1 X121.409 Y132.633 E6.09834
G1 X114.957 Y131.407 E6.31677
G1 X109.538 Y130.715 E6.49847
G1 X104.083 Y130.33 E6.68036
G1 X98.594 Y130.253 E6.86294
G1 X93.129 Y130.486 E7.04487
G1 X87.682 Y131.029 E7.22694
G1 X82.271 Y131.878 E7.40911
G1 X78.633 Y132.625 E7.53263
G1 X77.99 Y132.69 E7.55413
G1 X54.009 Y132.69 E8.35174
G1 X53.505 Y132.65 E8.36856
G1 X53.014 Y132.531 E8.38536
G1 X52.547 Y132.337 E8.40218
G1 X52.117 Y132.071 E8.419
G1 X51.734 Y131.741 E8.43581
G1 X51.408 Y131.354 E8.45264
G1 X51.147 Y130.921 E8.46946
G1 X50.957 Y130.453 E8.48626
G1 X50.844 Y129.96 E8.50308
G1 X50.81 Y129.563 E8.51633
G1 X50.643 Y122.227 E8.76039
G1 X50.179 Y116.757 E8.94298
G1 X49.343 Y110.951 E9.13808
G1 X49.31 Y110.495 E9.15328
G1 X49.31 Y100.51 E9.48539
G1 X49.35 Y100.006 E9.5022
G1 X49.425 Y99.661 E9.51395
G1 X50.908 Y94.274 E9.69978
G1 X52.074 Y88.87 E9.88366
G1 X52.523 Y86.245 E9.97223
G1 X53.222 Y80.789 E10.15518
G1 X53.612 Y75.31 E10.33788
G1 X53.711 Y70.247 E10.50631
G1 X53.76 Y69.744 E10.52311
G1 X53.889 Y69.255 E10.53993
G1 X54.093 Y68.793 E10.55673
G1 X54.367 Y68.368 E10.57355
G1 X54.704 Y67.991 E10.59037
G0 X57.1 Y70.501
;TYPE:SUPPORT
G1 X69.348 Y70.501 E10.99774
G1 X69.702 Y70.147 E11.01439
G1 X70.246 Y70.147 E11.03248
G1 X70.6 Y70.501 E11.04914
G1 X77.101 Y70.501 E11.26536
G1 X77.101 Y99.747 E12.23809
G1 X77.454 Y100.1 E12.25469
G1 X56.746 Y100.1 E12.94344
G1 X57.1 Y99.746 E12.96009
G1 X57.1 Y70.501 E13.93278
G1 F600 E7.93278
G0 F1800 X57.259 Y71.982
G1 F600 E13.93278
G1 F1800 X76.941 Y71.982 E14.58741
G1 F600 E8.58741
G0 F1800 X74.648 Y70.661
G1 F600 E14.58741
G1 F1800 X74.648 Y99.94 E15.56123
G1 F600 E9.56123
G0 F1800 X76.941 Y98.642
G1 F600 E15.56123
G1 F1800 X57.259 Y98.642 E16.21586
G1 F600 E10.21586
G0 F1800 X58.652 Y99.94
G1 F600 E16.21586
G1 F1800 X58.652 Y70.661 E17.18968
G1 F600 E11.18968
G0 F1800 X61.318 Y70.661
G1 F600 E17.18968
G1 F1800 X61.318 Y99.94 E18.16351
G1 F600 E12.16351
G0 F1800 X63.984 Y99.94
G1 F600 E18.16351
G1 F1800 X63.984 Y70.661 E19.13733
G1 F600 E13.13733
G0 F1800 X66.65 Y70.661
G1 F600 E19.13733
G1 F1800 X66.65 Y99.94 E20.11115
G1 F600 E14.11115
G0 F1800 X69.316 Y99.94
G1 F600 E20.11115
G1 F1800 X69.316 Y70.661 E21.08498
G1 F600 E15.08498
G0 F1800 X71.982 Y70.661
G1 F600 E21.08498
G1 F1800 X71.982 Y99.94 E22.0588
G1 F600 E16.0588
G0 F1800 X71.982 Y99.835
G0 X76.941 Y95.976
G1 F600 E22.0588
G1 F1800 X57.259 Y95.976 E22.71343
G1 F600 E16.71343
G0 F1800 X57.259 Y93.31
G1 F600 E22.71343
G1 F1800 X76.941 Y93.31 E23.36805
G1 F600 E17.36805
G0 F1800 X76.941 Y90.644
G1 F600 E23.36805
G1 F1800 X57.259 Y90.644 E24.02268
G1 F600 E18.02268
G0 F1800 X57.259 Y87.978
G1 F600 E24.02268
G1 F1800 X76.941 Y87.978 E24.6773
G1 F600 E18.6773
G0 F1800 X76.941 Y85.312
G1 F600 E24.6773
G1 F1800 X57.259 Y85.312 E25.33193
G1 F600 E19.33193
G0 F1800 X57.259 Y82.646
G1 F600 E25.33193
G1 F1800 X76.941 Y82.646 E25.98656
G1 F600 E19.98656
G0 F1800 X76.941 Y79.98
G1 F600 E25.98656
G1 F1800 X57.259 Y79.98 E26.64118
G1 F600 E20.64118
G0 F1800 X57.259 Y77.314
G1 F600 E26.64118
G1 F1800 X76.941 Y77.314 E27.29581
G1 F600 E21.29581
G0 F1800 X76.941 Y74.648
G1 F600 E27.29581
G1 F1800 X57.259 Y74.648 E27.95043
G0 X122.899 Y70.501
G1 X129.4 Y70.501 E28.16666
G1 X129.754 Y70.147 E28.18331
G1 X130.298 Y70.147 E28.2014
G1 X130.652 Y70.501 E28.21805
G1 X142.9 Y70.501 E28.62542
G1 X142.9 Y99.746 E29.59812
G1 X143.254 Y100.1 E29.61477
G1 X122.546 Y100.1 E30.30352
G1 X122.899 Y99.747 E30.32012
G1 X122.899 Y70.501 E31.29285
G1 F600 E25.29285
G0 F1800 X123.059 Y71.982
G1 F600 E31.29285
G1 F1800 X142.74 Y71.982 E31.94744
G1 F600 E25.94744
G0 F1800 X141.298 Y70.661
G1 F600 E31.94744
G1 F1800 X141.298 Y99.94 E32.92126
G1 F600 E26.92126
G0 F1800 X142.74 Y98.642
G1 F600 E32.92126
G1 F1800 X123.059 Y98.642 E33.57586
G1 F600 E27.57586
G0 F1800 X125.302 Y99.94
G1 F600 E33.57586
G1 F1800 X125.302 Y70.661 E34.54968
G1 F600 E28.54968
G0 F1800 X127.968 Y70.661
G1 F600 E34.54968
G1 F1800 X127.968 Y99.94 E35.5235
G1 F600 E29.5235
G0 F1800 X130.634 Y99.94
G1 F600 E35.5235
G1 F1800 X130.634 Y70.661 E36.49733
G1 F600 E30.49733
G0 F1800 X133.3 Y70.661
G1 F600 E36.49733
G1 F1800 X133.3 Y99.94 E37.47115
G1 F600 E31.47115
G0 F1800 X135.966 Y99.94
G1 F600 E37.47115
G1 F1800 X135.966 Y70.661 E38.44498
G1 F600 E32.44498
G0 F1800 X138.632 Y70.661
G1 F600 E38.44498
G1 F1800 X138.632 Y99.94 E39.4188
G1 F600 E33.4188
G0 F1800 X138.632 Y99.835
G0 X142.74 Y95.976
G1 F600 E39.4188
G1 F1800 X123.059 Y95.976 E40.07339
G1 F600 E34.07339
G0 F1800 X123.059 Y93.31
G1 F600 E40.07339
G1 F1800 X142.74 Y93.31 E40.72798
G1 F600 E34.72798
G0 F1800 X142.74 Y90.644
G1 F600 E40.72798
G1 F1800 X123.059 Y90.644 E41.38258
G1 F600 E35.38258
G0 F1800 X123.059 Y87.978
G1 F600 E41.38258
G1 F1800 X142.74 Y87.978 E42.03717
G1 F600 E36.03717
G0 F1800 X142.74 Y85.312
G1 F600 E42.03717
G1 F1800 X123.059 Y85.312 E42.69176
G1 F600 E36.69176
G0 F1800 X123.059 Y82.646
G1 F600 E42.69176
G1 F1800 X142.74 Y82.646 E43.34635
G1 F600 E37.34635
G0 F1800 X142.74 Y79.98
G1 F600 E43.34635
G1 F1800 X123.059 Y79.98 E44.00095
G1 F600 E38.00095
G0 F1800 X123.059 Y77.314
G1 F600 E44.00095
G1 F1800 X142.74 Y77.314 E44.65554
G1 F600 E38.65554
G0 F1800 X142.74 Y74.648
G1 F600 E44.65554
G1 F1800 X123.059 Y74.648 E45.31013
G1 F600 E39.31013
G0 F1800 X123.059 Y99.835
G0 X123.059 Y101.14
G0 X122.67 Y109.83
G0 X122.6 Y109.9
;TYPE:WALL-INNER
G1 F600 E45.31013
G1 F1800 X77.4 Y109.9 E46.81349
G1 X77.4 Y128.899 E47.4454
G1 X54.6 Y128.899 E48.20373
G1 X54.6 Y124.099 E48.36338
G1 X71.4 Y124.099 E48.92215
G1 X71.6 Y124.099 E48.9288
G1 X71.6 Y123.899 E48.93311
G1 X71.596 Y109.9 E49.39872
G1 X53.1 Y109.9 E50.0139
G1 X53.1 Y101.1 E50.30659
G1 X146.9 Y101.1 E53.42639
G1 X146.9 Y109.9 E53.71908
G1 X128.404 Y109.9 E54.33426
G1 X128.4 Y123.9 E54.7999
G1 X128.4 Y124.1 E54.80655
G1 X128.6 Y124.1 E54.81086
G1 X145.2 Y124.099 E55.36298
G1 X145.4 Y124.099 E55.36963
G1 X145.4 Y124.299 E55.37393
G1 X145.4 Y128.899 E55.52693
G1 X122.6 Y128.899 E56.28526
G1 X122.6 Y109.9 E56.91717
G0 X122.2 Y110.3
;TYPE:WALL-OUTER
G1 X77.8 Y110.3 E58.39392
G1 X77.8 Y129.299 E59.02583
G1 X54.2 Y129.299 E59.81077
G1 X54.2 Y123.699 E59.99703
G1 X71 Y123.699 E60.5558
G1 X71.2 Y123.699 E60.56245
G1 X71.2 Y123.499 E60.56676
G1 X71.196 Y110.3 E61.00576
G1 X52.7 Y110.3 E61.62094
G1 X52.7 Y100.7 E61.94023
G1 X147.3 Y100.7 E65.08664
G1 X147.3 Y110.3 E65.40594
G1 X128.804 Y110.3 E66.02112
G1 X128.8 Y123.5 E66.46015
G1 X128.8 Y123.7 E66.46681
G1 X129 Y123.7 E66.47111
G1 X145.6 Y123.699 E67.02323
G1 X145.8 Y123.699 E67.02988
G1 X145.8 Y123.899 E67.03419
G1 X145.8 Y129.299 E67.21379
G1 X122.2 Y129.299 E67.99873
G1 X122.2 Y110.3 E68.63064
G0 X122.779 Y110.334
;TYPE:SKIN
G1 X128.221 Y115.776 E68.88662
G0 X128.291 Y115.846
G0 X128.222 Y115.211
G1 X122.779 Y109.768 E69.14264
G0 X122.709 Y109.698
G0 X122.73 Y109.719
G1 X114.291 Y101.28 E69.53958
G0 X114.221 Y101.21
G0 X114.856 Y101.28
G1 X128.222 Y114.646 E70.16828
G0 X128.292 Y114.716
G0 X128.222 Y114.08
G1 X115.422 Y101.28 E70.77035
G0 X115.352 Y101.21
G0 X115.988 Y101.28
G1 X128.222 Y113.514 E71.3458
G0 X128.292 Y113.584
G0 X128.222 Y112.948
G1 X116.553 Y101.28 E71.89465
G0 X116.483 Y101.21
G0 X117.119 Y101.28
G1 X128.223 Y112.384 E72.41695
G0 X128.293 Y112.454
G0 X128.223 Y111.818
G1 X117.685 Y101.28 E72.91263
G0 X117.615 Y101.21
G0 X118.25 Y101.28
G1 X128.223 Y111.252 E73.3817
G0 X128.293 Y111.322
G0 X128.223 Y110.686
G1 X118.816 Y101.28 E73.82416
G0 X118.746 Y101.21
G0 X119.382 Y101.28
G1 X128.223 Y110.121 E74.24001
G0 X128.293 Y110.191
G0 X128.387 Y109.719
G1 X119.947 Y101.28 E74.63698
G0 X119.877 Y101.21
G0 X120.513 Y101.28
G1 X128.952 Y109.719 E75.03392
G0 X129.022 Y109.789
G0 X129.518 Y109.719
G1 X121.079 Y101.28 E75.43087
G0 X121.009 Y101.21
G0 X121.644 Y101.28
G1 X130.084 Y109.719 E75.82783
G0 X130.154 Y109.789
G0 X130.649 Y109.719
G1 X122.21 Y101.28 E76.22478
G0 X122.14 Y101.21
G0 X122.776 Y101.28
G1 X131.215 Y109.719 E76.62172
G0 X131.285 Y109.789
G0 X131.781 Y109.719
G1 X123.342 Y101.28 E77.01867
G0 X123.272 Y101.21
G0 X123.907 Y101.28
G1 X132.347 Y109.719 E77.41564
G0 X132.417 Y109.789
G0 X132.912 Y109.719
G1 X124.473 Y101.28 E77.81258
G0 X124.403 Y101.21
G0 X125.039 Y101.28
G1 X133.478 Y109.719 E78.20953
G0 X133.548 Y109.789
G0 X134.044 Y109.719
G1 X125.604 Y101.28 E78.60649
G0 X125.534 Y101.21
G0 X126.17 Y101.28
G1 X134.609 Y109.719 E79.00344
G0 X134.679 Y109.789
G0 X135.175 Y109.719
G1 X126.736 Y101.28 E79.40038
G0 X126.666 Y101.21
G0 X127.301 Y101.28
G1 X135.741 Y109.719 E79.79735
G0 X135.811 Y109.789
G0 X136.306 Y109.719
G1 X127.867 Y101.28 E80.1943
G0 X127.797 Y101.21
G0 X128.433 Y101.28
G1 X136.872 Y109.719 E80.59124
G0 X136.942 Y109.789
G0 X137.438 Y109.719
G1 X128.998 Y101.28 E80.98821
G0 X128.928 Y101.21
G0 X129.564 Y101.28
G1 X138.003 Y109.719 E81.38515
G0 X138.073 Y109.789
G0 X138.569 Y109.719
G1 X130.13 Y101.28 E81.7821
G0 X130.06 Y101.21
G0 X130.695 Y101.28
G1 X139.135 Y109.719 E82.17907
G0 X139.205 Y109.789
G0 X139.7 Y109.719
G1 X131.261 Y101.28 E82.57601
G0 X131.191 Y101.21
G0 X131.827 Y101.28
G1 X140.266 Y109.719 E82.97296
G0 X140.336 Y109.789
G0 X140.832 Y109.719
G1 X132.393 Y101.28 E83.3699
G0 X132.323 Y101.21
G0 X132.958 Y101.28
G1 X141.398 Y109.719 E83.76687
G0 X141.468 Y109.789
G0 X141.963 Y109.719
G1 X133.524 Y101.28 E84.16381
G0 X133.454 Y101.21
G0 X134.09 Y101.28
G1 X142.529 Y109.719 E84.56076
G0 X142.599 Y109.789
G0 X143.095 Y109.719
G1 X134.655 Y101.28 E84.95773
G0 X134.585 Y101.21
G0 X135.221 Y101.28
G1 X143.66 Y109.719 E85.35467
G0 X143.73 Y109.789
G0 X144.226 Y109.719
G1 X135.787 Y101.28 E85.75162
G0 X135.717 Y101.21
G0 X136.352 Y101.28
G1 X144.792 Y109.719 E86.14858
G0 X144.862 Y109.789
G0 X145.357 Y109.719
G1 X136.918 Y101.28 E86.54553
G0 X136.848 Y101.21
G0 X137.484 Y101.28
G1 X145.923 Y109.719 E86.94247
G0 X145.993 Y109.789
G0 X146.489 Y109.719
G1 X138.049 Y101.28 E87.33944
G0 X137.979 Y101.21
G0 X138.615 Y101.28
G1 X146.719 Y109.383 E87.72061
G0 X146.789 Y109.453
G0 X146.719 Y108.818
G1 X139.181 Y101.28 E88.07517
G0 X139.111 Y101.21
G0 X139.746 Y101.28
G1 X146.719 Y108.252 E88.40314
G0 X146.789 Y108.322
G0 X146.719 Y107.686
G1 X140.312 Y101.28 E88.70448
G0 X140.242 Y101.21
G0 X140.878 Y101.28
G1 X146.719 Y107.121 E88.97922
G0 X146.789 Y107.191
G0 X146.719 Y106.555
G1 X141.443 Y101.28 E89.22736
G0 X141.373 Y101.21
G0 X142.009 Y101.28
G1 X146.719 Y105.989 E89.44888
G0 X146.789 Y106.059
G0 X146.719 Y105.423
G1 X142.575 Y101.28 E89.64378
G0 X142.505 Y101.21
G0 X143.141 Y101.28
G1 X146.719 Y104.858 E89.81208
G0 X146.789 Y104.928
G0 X146.719 Y104.292
G1 X143.706 Y101.28 E89.95378
G0 X143.636 Y101.21
G0 X144.272 Y101.28
G1 X146.719 Y103.726 E90.06885
G0 X146.789 Y103.796
G0 X146.719 Y103.161
G1 X144.838 Y101.28 E90.15733
G0 X144.768 Y101.21
G0 X145.403 Y101.28
G1 X146.719 Y102.595 E90.21921
G0 X146.789 Y102.665
G0 X146.719 Y102.029
G1 X145.969 Y101.28 E90.25446
G0 X145.899 Y101.21
G0 X146.535 Y101.28
G1 X146.719 Y101.464 E90.26312
G0 X128.376 Y109.872
G0 X128.372 Y124.128
G0 X144.644 Y124.279
G1 X145.219 Y124.854 E90.29016
G0 X145.289 Y124.924
G0 X145.219 Y125.42
G1 X144.078 Y124.279 E90.34383
G0 X144.008 Y124.209
G0 X143.512 Y124.279
G1 X145.219 Y125.985 E90.4241
G0 X145.289 Y126.055
G0 X145.219 Y126.551
G1 X142.947 Y124.279 E90.53097
G0 X142.877 Y124.209
G0 X142.381 Y124.279
G1 X145.219 Y127.117 E90.66446
G0 X145.289 Y127.187
G0 X145.219 Y127.682
G1 X141.815 Y124.279 E90.82455
G0 X141.745 Y124.209
G0 X141.25 Y124.279
G1 X145.219 Y128.248 E91.01124
G0 X145.289 Y128.318
G0 X145.123 Y128.718
G1 X140.684 Y124.279 E91.22004
G0 X140.614 Y124.209
G0 X140.118 Y124.279
G1 X144.558 Y128.718 E91.42886
G0 X144.628 Y128.788
G0 X143.992 Y128.718
G1 X139.553 Y124.279 E91.63765
G0 X139.483 Y124.209
G0 X138.987 Y124.279
G1 X143.426 Y128.718 E91.84645
G0 X143.496 Y128.788
G0 X142.861 Y128.718
G1 X138.421 Y124.279 E92.05527
G0 X138.351 Y124.209
G0 X137.856 Y124.279
G1 X142.295 Y128.718 E92.26407
G0 X142.365 Y128.788
G0 X141.729 Y128.718
G1 X137.29 Y124.279 E92.47287
G0 X137.22 Y124.209
G0 X136.724 Y124.279
G1 X141.163 Y128.718 E92.68166
G0 X141.233 Y128.788
G0 X140.598 Y128.718
G1 X136.159 Y124.279 E92.89046
G0 X136.089 Y124.209
G0 X135.593 Y124.279
G1 X140.032 Y128.718 E93.09926
G0 X140.102 Y128.788
G0 X139.466 Y128.718
G1 X135.027 Y124.279 E93.30805
G0 X134.957 Y124.209
G0 X134.462 Y124.279
G1 X138.901 Y128.718 E93.51685
G0 X138.971 Y128.788
G0 X138.335 Y128.718
G1 X133.896 Y124.279 E93.72565
G0 X133.826 Y124.209
G0 X133.33 Y124.279
G1 X137.769 Y128.718 E93.93444
G0 X137.839 Y128.788
G0 X137.204 Y128.718
G1 X132.764 Y124.279 E94.14326
G0 X132.694 Y124.209
G0 X132.199 Y124.279
G1 X136.638 Y128.718 E94.35206
G0 X136.708 Y128.788
G0 X136.072 Y128.718
G1 X131.633 Y124.279 E94.56086
G0 X131.563 Y124.209
G0 X131.067 Y124.279
G1 X135.507 Y128.718 E94.76968
G0 X135.577 Y128.788
G0 X134.941 Y128.718
G1 X130.502 Y124.279 E94.97848
G0 X130.432 Y124.209
G0 X129.936 Y124.279
G1 X134.375 Y128.718 E95.18727
G0 X134.445 Y128.788
G0 X133.809 Y128.718
G1 X129.37 Y124.279 E95.39607
G0 X129.3 Y124.209
G0 X128.805 Y124.279
G1 X133.243 Y128.718 E95.60484
G0 X133.313 Y128.788
G0 X132.677 Y128.718
G1 X128.239 Y124.279 E95.81362
G0 X128.169 Y124.209
G0 X128.22 Y124.26
G1 X122.779 Y118.819 E96.06954
G0 X122.709 Y118.749
G0 X122.779 Y118.253
G1 X128.22 Y123.694 E96.32547
G0 X128.29 Y123.764
G0 X128.22 Y123.129
G1 X122.779 Y117.688 E96.5814
G0 X122.709 Y117.618
G0 X122.779 Y117.122
G1 X128.22 Y122.563 E96.83733
G0 X128.29 Y122.633
G0 X128.22 Y121.997
G1 X122.779 Y116.556 E97.09326
G0 X122.709 Y116.486
G0 X122.779 Y115.99
G1 X128.22 Y121.432 E97.34921
G0 X128.29 Y121.502
G0 X128.221 Y120.867
G1 X122.779 Y115.425 E97.60518
G0 X122.709 Y115.355
G0 X122.779 Y114.859
G1 X128.221 Y120.301 E97.86116
G0 X128.291 Y120.371
G0 X128.221 Y119.735
G1 X122.779 Y114.293 E98.11713
G0 X122.709 Y114.223
G0 X122.779 Y113.728
G1 X128.221 Y119.17 E98.37311
G0 X128.291 Y119.24
G0 X128.221 Y118.604
G1 X122.779 Y113.162 E98.62908
G0 X122.709 Y113.092
G0 X122.779 Y112.596
G1 X128.221 Y118.039 E98.88508
G0 X128.291 Y118.109
G0 X128.221 Y117.473
G1 X122.779 Y112.031 E99.14106
G0 X122.709 Y111.961
G0 X122.779 Y111.465
G1 X128.221 Y116.908 E99.39705
G0 X128.291 Y116.978
G0 X128.221 Y116.342
G1 X122.779 Y110.899 E99.65305
G0 X122.709 Y110.829
G0 X122.628 Y109.872
G0 X122.164 Y109.719
G1 X113.725 Y101.28 E100.05
G0 X113.655 Y101.21
G0 X113.159 Y101.28
G1 X121.599 Y109.719 E100.44697
G0 X121.669 Y109.789
G0 X121.033 Y109.719
G1 X112.594 Y101.28 E100.84391
G0 X112.524 Y101.21
G0 X112.028 Y101.28
G1 X120.467 Y109.719 E101.24086
G0 X120.537 Y109.789
G0 X119.901 Y109.719
G1 X111.462 Y101.28 E101.6378
G0 X111.392 Y101.21
G0 X110.896 Y101.28
G1 X119.336 Y109.719 E102.03477
G0 X119.406 Y109.789
G0 X118.77 Y109.719
G1 X110.331 Y101.28 E102.43171
G0 X110.261 Y101.21
G0 X109.765 Y101.28
G1 X118.204 Y109.719 E102.82866
G0 X118.274 Y109.789
G0 X117.639 Y109.719
G1 X109.199 Y101.28 E103.22563
G0 X109.129 Y101.21
G0 X108.634 Y101.28
G1 X117.073 Y109.719 E103.62257
G0 X117.143 Y109.789
G0 X116.507 Y109.719
G1 X108.068 Y101.28 E104.01952
G0 X107.998 Y101.21
G0 X107.502 Y101.28
G1 X115.942 Y109.719 E104.41648
G0 X116.012 Y109.789
G0 X115.376 Y109.719
G1 X106.937 Y101.28 E104.81343
G0 X106.867 Y101.21
G0 X106.371 Y101.28
G1 X114.81 Y109.719 E105.21037
G0 X114.88 Y109.789
G0 X114.245 Y109.719
G1 X105.805 Y101.28 E105.60734
G0 X105.735 Y101.21
G0 X105.24 Y101.28
G1 X113.679 Y109.719 E106.00429
G0 X113.749 Y109.789
G0 X113.113 Y109.719
G1 X104.674 Y101.28 E106.40123
G0 X104.604 Y101.21
G0 X104.108 Y101.28
G1 X112.548 Y109.719 E106.7982
G0 X112.618 Y109.789
G0 X111.982 Y109.719
G1 X103.543 Y101.28 E107.19514
G0 X103.473 Y101.21
G0 X102.977 Y101.28
G1 X111.416 Y109.719 E107.59209
G0 X111.486 Y109.789
G0 X110.851 Y109.719
G1 X102.411 Y101.28 E107.98906
G0 X102.341 Y101.21
G0 X101.846 Y101.28
G1 X110.285 Y109.719 E108.386
G0 X110.355 Y109.789
G0 X109.719 Y109.719
G1 X101.28 Y101.28 E108.78295
G0 X101.21 Y101.21
G0 X100.714 Y101.28
G1 X109.153 Y109.719 E109.17989
G0 X109.223 Y109.789
G0 X108.588 Y109.719
G1 X100.148 Y101.28 E109.57686
G0 X100.078 Y101.21
G0 X99.583 Y101.28
G1 X108.022 Y109.719 E109.9738
G0 X108.092 Y109.789
G0 X107.456 Y109.719
G1 X99.017 Y101.28 E110.37075
G0 X98.947 Y101.21
G0 X98.451 Y101.28
G1 X106.891 Y109.719 E110.76772
G0 X106.961 Y109.789
G0 X106.325 Y109.719
G1 X97.886 Y101.28 E111.16466
G0 X97.816 Y101.21
G0 X97.32 Y101.28
G1 X105.759 Y109.719 E111.56161
G0 X105.829 Y109.789
G0 X105.194 Y109.719
G1 X96.754 Y101.28 E111.95857
G0 X96.684 Y101.21
G0 X96.189 Y101.28
G1 X104.628 Y109.719 E112.35552
G0 X104.698 Y109.789
G0 X104.062 Y109.719
G1 X95.623 Y101.28 E112.75246
G0 X95.553 Y101.21
G0 X95.057 Y101.28
G1 X103.497 Y109.719 E113.14943
G0 X103.567 Y109.789
G0 X102.931 Y109.719
G1 X94.492 Y101.28 E113.54638
G0 X94.422 Y101.21
G0 X93.926 Y101.28
G1 X102.365 Y109.719 E113.94332
G0 X102.435 Y109.789
G0 X101.8 Y109.719
G1 X93.36 Y101.28 E114.34029
G0 X93.29 Y101.21
G0 X92.795 Y101.28
G1 X101.234 Y109.719 E114.73723
G0 X101.304 Y109.789
G0 X100.668 Y109.719
G1 X92.229 Y101.28 E115.13418
G0 X92.159 Y101.21
G0 X91.663 Y101.28
G1 X100.102 Y109.719 E115.53112
G0 X100.172 Y109.789
G0 X99.536 Y109.718
G1 X91.097 Y101.28 E115.92804
G0 X91.027 Y101.21
G0 X90.532 Y101.28
G1 X98.97 Y109.718 E116.32494
G0 X99.04 Y109.788
G0 X98.405 Y109.718
G1 X89.966 Y101.28 E116.72186
G0 X89.896 Y101.21
G0 X89.4 Y101.28
G1 X97.839 Y109.718 E117.11878
G0 X97.909 Y109.788
G0 X97.273 Y109.718
G1 X88.835 Y101.28 E117.51568
G0 X88.765 Y101.21
G0 X88.269 Y101.28
G1 X96.708 Y109.718 E117.9126
G0 X96.778 Y109.788
G0 X96.142 Y109.718
G1 X87.703 Y101.28 E118.30952
G0 X87.633 Y101.21
G0 X87.138 Y101.28
G1 X95.576 Y109.718 E118.70642
G0 X95.646 Y109.788
G0 X95.011 Y109.718
G1 X86.572 Y101.28 E119.10334
G0 X86.502 Y101.21
G0 X86.006 Y101.28
G1 X94.445 Y109.718 E119.50026
G0 X94.515 Y109.788
G0 X93.879 Y109.718
G1 X85.441 Y101.28 E119.89716
G0 X85.371 Y101.21
G0 X84.875 Y101.28
G1 X93.314 Y109.718 E120.29408
G0 X93.384 Y109.788
G0 X92.748 Y109.718
G1 X84.309 Y101.28 E120.691
G0 X84.239 Y101.21
G0 X83.744 Y101.28
G1 X92.182 Y109.718 E121.0879
G0 X92.252 Y109.788
G0 X91.616 Y109.718
G1 X83.178 Y101.28 E121.4848
G0 X83.108 Y101.21
G0 X82.612 Y101.28
G1 X91.051 Y109.718 E121.88172
G0 X91.121 Y109.788
G0 X90.485 Y109.718
G1 X82.047 Y101.28 E122.27862
G0 X81.977 Y101.21
G0 X81.481 Y101.28
G1 X89.919 Y109.718 E122.67552
G0 X89.989 Y109.788
G0 X89.354 Y109.718
G1 X80.915 Y101.28 E123.07244
G0 X80.845 Y101.21
G0 X80.349 Y101.28
G1 X88.788 Y109.718 E123.46936
G0 X88.858 Y109.788
G0 X88.222 Y109.718
G1 X79.784 Y101.28 E123.86626
G0 X79.714 Y101.21
G0 X79.218 Y101.28
G1 X87.657 Y109.718 E124.26318
G0 X87.727 Y109.788
G0 X87.091 Y109.718
G1 X78.652 Y101.28 E124.6601
G0 X78.582 Y101.21
G0 X78.087 Y101.28
G1 X86.525 Y109.718 E125.057
G0 X86.595 Y109.788
G0 X85.96 Y109.718
G1 X77.521 Y101.28 E125.45392
G0 X77.451 Y101.21
G0 X76.955 Y101.28
G1 X85.394 Y109.718 E125.85084
G0 X85.464 Y109.788
G0 X84.828 Y109.718
G1 X76.39 Y101.28 E126.24774
G0 X76.32 Y101.21
G0 X75.824 Y101.28
G1 X84.263 Y109.718 E126.64466
G0 X84.333 Y109.788
G0 X83.697 Y109.718
G1 X75.258 Y101.28 E127.04158
G0 X75.188 Y101.21
G0 X74.693 Y101.28
G1 X83.131 Y109.718 E127.43848
G0 X83.201 Y109.788
G0 X82.566 Y109.718
G1 X74.127 Y101.28 E127.8354
G0 X74.057 Y101.21
G0 X73.561 Y101.28
G1 X82 Y109.718 E128.23232
G0 X82.07 Y109.788
G0 X81.434 Y109.718
G1 X72.996 Y101.28 E128.62922
G0 X72.926 Y101.21
G0 X72.43 Y101.28
G1 X80.868 Y109.718 E129.02611
G0 X80.938 Y109.788
G0 X80.303 Y109.718
G1 X71.864 Y101.28 E129.42303
G0 X71.794 Y101.21
G0 X71.298 Y101.28
G1 X79.737 Y109.718 E129.81996
G0 X79.807 Y109.788
G0 X79.171 Y109.718
G1 X70.733 Y101.28 E130.21685
G0 X70.663 Y101.21
G0 X70.167 Y101.28
G1 X78.606 Y109.718 E130.61377
G0 X78.676 Y109.788
G0 X78.04 Y109.718
G1 X69.601 Y101.28 E131.0107
G0 X69.531 Y101.21
G0 X69.036 Y101.28
G1 X77.474 Y109.718 E131.40759
G0 X77.544 Y109.788
G0 X77.22 Y110.03
G1 X68.47 Y101.28 E131.81917
G0 X68.4 Y101.21
G0 X67.904 Y101.28
G1 X77.22 Y110.595 E132.25734
G0 X77.29 Y110.665
G0 X77.22 Y111.161
G1 X67.339 Y101.28 E132.72211
G0 X67.269 Y101.21
G0 X66.773 Y101.28
G1 X77.22 Y111.727 E133.21351
G0 X77.29 Y111.797
G0 X77.22 Y112.292
G1 X66.207 Y101.28 E133.7315
G0 X66.137 Y101.21
G0 X65.642 Y101.28
G1 X77.22 Y112.858 E134.27609
G0 X77.29 Y112.928
G0 X77.22 Y113.424
G1 X65.076 Y101.28 E134.84731
G0 X65.006 Y101.21
G0 X64.51 Y101.28
G1 X77.22 Y113.989 E135.44513
G0 X77.29 Y114.059
G0 X77.22 Y114.555
G1 X63.945 Y101.28 E136.06954
G0 X63.875 Y101.21
G0 X63.379 Y101.28
G1 X77.22 Y115.121 E136.72058
G0 X77.29 Y115.191
G0 X77.22 Y115.686
G1 X71.776 Y110.242 E136.97665
G0 X71.706 Y110.172
G0 X71.776 Y110.808
G1 X77.22 Y116.252 E137.23272
G0 X77.29 Y116.322
G0 X77.22 Y116.818
G1 X71.776 Y111.374 E137.48879
G0 X71.706 Y111.304
G0 X71.776 Y111.939
G1 X77.22 Y117.383 E137.74486
G0 X77.29 Y117.453
G0 X77.22 Y117.949
G1 X71.776 Y112.505 E138.00093
G0 X71.706 Y112.435
G0 X71.776 Y113.072
G1 X77.22 Y118.515 E138.25697
G0 X77.29 Y118.585
G0 X77.22 Y119.081
G1 X71.776 Y113.637 E138.51304
G0 X71.706 Y113.567
G0 X71.776 Y114.203
G1 X77.22 Y119.646 E138.76909
G0 X77.29 Y119.716
G0 X77.22 Y120.212
G1 X71.776 Y114.769 E139.02513
G0 X71.706 Y114.699
G0 X71.776 Y115.334
G1 X77.22 Y120.778 E139.2812
G0 X77.29 Y120.848
G0 X77.22 Y121.343
G1 X71.777 Y115.901 E139.5372
G0 X71.707 Y115.831
G0 X71.777 Y116.466
G1 X77.22 Y121.909 E139.79322
G0 X77.29 Y121.979
G0 X77.22 Y122.475
G1 X71.777 Y117.032 E140.04924
G0 X71.707 Y116.962
G0 X71.777 Y117.598
G1 X77.22 Y123.04 E140.30524
G0 X77.29 Y123.11
G0 X77.22 Y123.606
G1 X71.777 Y118.163 E140.56126
G0 X71.707 Y118.093
G0 X71.778 Y118.73
G1 X77.22 Y124.172 E140.81724
G0 X77.29 Y124.242
G0 X77.22 Y124.737
G1 X71.778 Y119.295 E141.07321
G0 X71.708 Y119.225
G0 X71.778 Y119.861
G1 X77.22 Y125.303 E141.32919
G0 X77.29 Y125.373
G0 X77.22 Y125.869
G1 X71.778 Y120.427 E141.58516
G0 X71.708 Y120.357
G0 X71.778 Y120.993
G1 X77.22 Y126.434 E141.84111
G0 X77.29 Y126.504
G0 X77.22 Y127
G1 X71.779 Y121.559 E142.09704
G0 X71.709 Y121.489
G0 X71.779 Y122.125
G1 X77.22 Y127.566 E142.35297
G0 X77.29 Y127.636
G0 X77.22 Y128.131
G1 X71.779 Y122.69 E142.6089
G0 X71.709 Y122.62
G0 X71.779 Y123.256
G1 X77.22 Y128.697 E142.86483
G0 X77.29 Y128.767
G0 X76.675 Y128.718
G1 X71.779 Y123.822 E143.09512
G0 X71.709 Y123.752
G0 X71.669 Y124.278
G1 X76.109 Y128.718 E143.30396
G0 X76.179 Y128.788
G0 X75.543 Y128.718
G1 X71.103 Y124.278 E143.51281
G0 X71.033 Y124.208
G0 X70.538 Y124.278
G1 X74.978 Y128.718 E143.72165
G0 X75.048 Y128.788
G0 X74.412 Y128.718
G1 X69.972 Y124.278 E143.9305
G0 X69.902 Y124.208
G0 X69.406 Y124.278
G1 X73.846 Y128.718 E144.13934
G0 X73.916 Y128.788
G0 X73.281 Y128.718
G1 X68.841 Y124.278 E144.34818
G0 X68.771 Y124.208
G0 X68.275 Y124.278
G1 X72.715 Y128.718 E144.55703
G0 X72.785 Y128.788
G0 X72.149 Y128.718
G1 X67.709 Y124.278 E144.76587
G0 X67.639 Y124.208
G0 X67.144 Y124.278
G1 X71.583 Y128.718 E144.97469
G0 X71.653 Y128.788
G0 X71.018 Y128.718
G1 X66.578 Y124.278 E145.18354
G0 X66.508 Y124.208
G0 X66.012 Y124.278
G1 X70.452 Y128.718 E145.39238
G0 X70.522 Y128.788
G0 X69.886 Y128.718
G1 X65.446 Y124.278 E145.60122
G0 X65.376 Y124.208
G0 X64.881 Y124.278
G1 X69.321 Y128.718 E145.81007
G0 X69.391 Y128.788
G0 X68.755 Y128.718
G1 X64.315 Y124.278 E146.01891
G0 X64.245 Y124.208
G0 X63.749 Y124.278
G1 X68.189 Y128.718 E146.22776
G0 X68.259 Y128.788
G0 X67.624 Y128.718
G1 X63.184 Y124.278 E146.4366
G0 X63.114 Y124.208
G0 X62.618 Y124.278
G1 X67.058 Y128.718 E146.64544
G0 X67.128 Y128.788
G0 X66.492 Y128.718
G1 X62.052 Y124.278 E146.85429
G0 X61.982 Y124.208
G0 X61.487 Y124.278
G1 X65.927 Y128.718 E147.06313
G0 X65.997 Y128.788
G0 X65.361 Y128.718
G1 X60.921 Y124.278 E147.27198
G0 X60.851 Y124.208
G0 X60.355 Y124.278
G1 X64.795 Y128.718 E147.48082
G0 X64.865 Y128.788
G0 X64.23 Y128.718
G1 X59.79 Y124.278 E147.68966
G0 X59.72 Y124.208
G0 X59.224 Y124.278
G1 X63.664 Y128.718 E147.89851
G0 X63.734 Y128.788
G0 X63.098 Y128.718
G1 X58.658 Y124.278 E148.10735
G0 X58.588 Y124.208
G0 X58.093 Y124.278
G1 X62.532 Y128.718 E148.31617
G0 X62.602 Y128.788
G0 X61.967 Y128.718
G1 X57.527 Y124.278 E148.52502
G0 X57.457 Y124.208
G0 X56.961 Y124.278
G1 X61.401 Y128.718 E148.73386
G0 X61.471 Y128.788
G0 X60.835 Y128.718
G1 X56.396 Y124.278 E148.94268
G0 X56.326 Y124.208
G0 X55.83 Y124.278
G1 X60.27 Y128.718 E149.15152
G0 X60.34 Y128.788
G0 X59.704 Y128.718
G1 X55.264 Y124.278 E149.36037
G0 X55.194 Y124.208
G0 X54.779 Y124.358
G1 X59.138 Y128.718 E149.56543
G0 X59.208 Y128.788
G0 X58.573 Y128.718
G1 X54.779 Y124.924 E149.74388
G0 X54.709 Y124.854
G0 X54.779 Y125.49
G1 X58.007 Y128.718 E149.89572
G0 X58.077 Y128.788
G0 X57.441 Y128.718
G1 X54.779 Y126.055 E150.02095
G0 X54.709 Y125.985
G0 X54.779 Y126.621
G1 X56.876 Y128.718 E150.11959
G0 X56.946 Y128.788
G0 X56.31 Y128.718
G1 X54.779 Y127.187 E150.1916
G0 X54.709 Y127.117
G0 X54.779 Y127.752
G1 X55.744 Y128.718 E150.23702
G0 X55.814 Y128.788
G0 X55.179 Y128.718
G1 X54.779 Y128.318 E150.25583
G0 X71.628 Y124.127
G0 X71.624 Y109.872
G0 X54.848 Y109.719
G1 X53.279 Y108.151 E150.32961
G0 X53.209 Y108.081
G0 X53.279 Y108.716
G1 X54.282 Y109.719 E150.37679
G0 X54.352 Y109.789
G0 X53.716 Y109.719
G1 X53.279 Y109.282 E150.39734
G0 X53.279 Y107.585
G1 X55.413 Y109.719 E150.49772
G0 X55.483 Y109.789
G0 X55.979 Y109.719
G1 X53.279 Y107.019 E150.62472
G0 X53.209 Y106.949
G0 X53.279 Y106.454
G1 X56.545 Y109.719 E150.77832
G0 X56.615 Y109.789
G0 X57.11 Y109.719
G1 X53.279 Y105.888 E150.95852
G0 X53.209 Y105.818
G0 X53.279 Y105.322
G1 X57.676 Y109.719 E151.16534
G0 X57.746 Y109.789
G0 X58.242 Y109.719
G1 X53.279 Y104.757 E151.39876
G0 X53.209 Y104.687
G0 X53.279 Y104.191
G1 X58.807 Y109.719 E151.65878
G0 X58.877 Y109.789
G0 X59.373 Y109.719
G1 X53.279 Y103.625 E151.94542
G0 X53.209 Y103.555
G0 X53.279 Y103.06
G1 X59.939 Y109.719 E152.25867
G0 X60.009 Y109.789
G0 X60.505 Y109.719
G1 X53.279 Y102.494 E152.59853
G0 X53.209 Y102.424
G0 X53.279 Y101.928
G1 X61.07 Y109.719 E152.965
G0 X61.14 Y109.789
G0 X61.636 Y109.719
G1 X53.279 Y101.363 E153.35806
G0 X53.209 Y101.293
G0 X53.762 Y101.28
G1 X62.202 Y109.719 E153.75503
G0 X62.272 Y109.789
G0 X62.767 Y109.719
G1 X54.328 Y101.28 E154.15197
G0 X54.258 Y101.21
G0 X54.894 Y101.28
G1 X63.333 Y109.719 E154.54892
G0 X63.403 Y109.789
G0 X63.899 Y109.719
G1 X55.459 Y101.28 E154.94589
G0 X55.389 Y101.21
G0 X56.025 Y101.28
G1 X64.464 Y109.719 E155.34283
G0 X64.534 Y109.789
G0 X65.03 Y109.719
G1 X56.591 Y101.28 E155.73978
G0 X56.521 Y101.21
G0 X57.156 Y101.28
G1 X65.596 Y109.719 E156.13674
G0 X65.666 Y109.789
G0 X66.161 Y109.719
G1 X57.722 Y101.28 E156.53369
G0 X57.652 Y101.21
G0 X58.288 Y101.28
G1 X66.727 Y109.719 E156.93063
G0 X66.797 Y109.789
G0 X67.293 Y109.719
G1 X58.853 Y101.28 E157.3276
G0 X58.783 Y101.21
G0 X59.419 Y101.28
G1 X67.858 Y109.719 E157.72455
G0 X67.928 Y109.789
G0 X68.424 Y109.719
G1 X59.985 Y101.28 E158.12149
G0 X59.915 Y101.21
G0 X60.55 Y101.28
G1 X68.99 Y109.719 E158.51846
G0 X69.06 Y109.789
G0 X69.555 Y109.719
G1 X61.116 Y101.28 E158.9154
G0 X61.046 Y101.21
G0 X61.682 Y101.28
G1 X70.121 Y109.719 E159.31235
G0 X70.191 Y109.789
G0 X70.687 Y109.719
G1 X62.248 Y101.28 E159.70929
G0 X62.178 Y101.21
G0 X62.813 Y101.28
G1 X71.253 Y109.719 E160.10626
G0 X71.323 Y109.789
G0 X122.628 Y109.872
G0 X122.779 Y119.385
G1 X132.112 Y128.718 E160.54526
G0 X132.182 Y128.788
G0 X131.546 Y128.718
G1 X122.779 Y119.95 E160.95765
G0 X122.709 Y119.88
G0 X122.779 Y120.516
G1 X130.98 Y128.718 E161.34343
G0 X131.05 Y128.788
G0 X130.415 Y128.718
G1 X122.779 Y121.082 E161.7026
G0 X122.709 Y121.012
G0 X122.779 Y121.647
G1 X129.849 Y128.718 E162.03518
G0 X129.919 Y128.788
G0 X129.283 Y128.718
G1 X122.779 Y122.213 E162.34113
G0 X122.709 Y122.143
G0 X122.779 Y122.779
G1 X128.718 Y128.718 E162.62048
G0 X128.788 Y128.788
G0 X128.152 Y128.718
G1 X122.779 Y123.344 E162.87323
G0 X122.709 Y123.274
G0 X122.779 Y123.91
G1 X127.586 Y128.718 E163.09936
G0 X127.656 Y128.788
G0 X127.021 Y128.718
G1 X122.779 Y124.476 E163.29889
G0 X122.709 Y124.406
G0 X122.779 Y125.041
G1 X126.455 Y128.718 E163.47182
G0 X126.525 Y128.788
G0 X125.889 Y128.718
G1 X122.779 Y125.607 E163.61813
G0 X122.709 Y125.537
G0 X122.779 Y126.173
G1 X125.324 Y128.718 E163.73784
G0 X125.394 Y128.788
G0 X124.758 Y128.718
G1 X122.779 Y126.738 E163.83095
G0 X122.709 Y126.668
G0 X122.779 Y127.304
G1 X124.192 Y128.718 E163.89744
G0 X124.262 Y128.788
G0 X123.627 Y128.718
G1 X122.779 Y127.87 E163.93733
G0 X122.709 Y127.8
G0 X122.779 Y128.436
G1 X123.061 Y128.718 E163.95059
G0 X123.061 Y128.499
;TIME_ELAPSED:218.625932
;LAYER:1
G1 F600 E157.95059
G0 F3300 X123.061 Y128.499 Z.5
G0 X122.899 Y101.14
G0 X122.899 Y99.6
;TYPE:SUPPORT
G1 F600 E163.95059
G1 F3300 X125.302 Y99.6 E164.07048
G1 X127.968 Y99.6 E164.20348
G1 X127.968 Y70.501 E165.65524
G1 X129.4 Y70.501 E165.72668
G1 X129.754 Y70.147 E165.75166
G1 X130.298 Y70.147 E165.7788
G1 X130.634 Y70.483 E165.8025
G1 X130.634 Y99.6 E167.25516
G1 X133.3 Y99.6 E167.38817
G1 X133.3 Y70.501 E168.83992
G1 X135.966 Y70.501 E168.97293
G1 X135.966 Y99.6 E170.42468
G1 X138.632 Y99.6 E170.55769
G1 X138.632 Y70.501 E172.00944
G1 X141.298 Y70.501 E172.14245
G1 X142.9 Y70.501 E172.22238
G1 X142.9 Y99.6 E173.67413
G1 X141.298 Y99.6 E173.75406
G1 X141.298 Y70.501 E175.20581
G0 X125.302 Y70.501
G1 X125.302 Y99.6 E176.65757
G1 F600 E170.65757
G0 F3300 X122.899 Y99.6
G1 F600 E176.65757
G1 F3300 X122.899 Y70.501 E178.10932
G1 X125.302 Y70.501 E178.22921
G0 X77.101 Y70.501
G1 X74.648 Y70.501 E178.35159
G1 X74.648 Y99.6 E179.80334
G1 X71.982 Y99.6 E179.93635
G1 X71.982 Y70.501 E181.3881
G1 X70.6 Y70.501 E181.45705
G1 X70.246 Y70.147 E181.48203
G1 X69.702 Y70.147 E181.50917
G1 X69.348 Y70.501 E181.53415
G1 X69.316 Y70.501 E181.53574
G1 X69.316 Y99.6 E182.9875
G1 X66.65 Y99.6 E183.1205
G1 X66.65 Y70.501 E184.57226
G1 X63.984 Y70.501 E184.70527
G1 X63.984 Y99.6 E186.15702
G1 X61.318 Y99.6 E186.29003
G1 X61.318 Y70.501 E187.74178
G1 X58.652 Y70.501 E187.87479
G1 X58.652 Y99.6 E189.32655
G1 X57.1 Y99.6 E189.40398
G1 X57.1 Y70.501 E190.85573
G1 X58.652 Y70.501 E190.93316
G0 X77.101 Y70.501
G1 X77.101 Y99.6 E192.38492
G1 X74.648 Y99.6 E192.5073
G1 F600 E186.5073
G0 F3300 X74.648 Y101.14
G0 X77.33 Y109.83
G0 X77.4 Y109.9
;TYPE:WALL-INNER
G1 F600 E192.5073
G1 F2700 X77.4 Y128.899 E193.45516
G1 X54.6 Y128.899 E194.59266
G1 X54.6 Y124.099 E194.83213
G1 X71.6 Y124.099 E195.68026
G1 X71.6 Y109.9 E196.38865
G1 X53.1 Y109.9 E197.31162
G1 X53.1 Y101.1 E197.75066
G1 X146.9 Y101.1 E202.43036
G1 X146.9 Y109.9 E202.86939
G1 X128.4 Y109.9 E203.79236
G1 X128.4 Y123.9 E204.49082
G1 X128.4 Y124.1 E204.5008
G1 X128.6 Y124.1 E204.50726
G1 X145.2 Y124.099 E205.33544
G1 X145.4 Y124.099 E205.34542
G1 X145.4 Y124.299 E205.35188
G1 X145.4 Y128.899 E205.58137
G1 X122.6 Y128.899 E206.71887
G1 X122.6 Y109.9 E207.66673
G1 X77.4 Y109.9 E209.92177
G0 F3300 X77.8 Y110.3
;TYPE:WALL-OUTER
G1 F2400 X77.8 Y129.299 E210.86964
G1 X54.2 Y129.299 E212.04704
G1 X54.2 Y123.699 E212.32643
G1 X71.2 Y123.699 E213.17456
G1 X71.2 Y110.3 E213.84304
G1 X52.7 Y110.3 E214.76601
G1 X52.7 Y100.7 E215.24496
G1 X147.3 Y100.7 E219.96457
G1 X147.3 Y110.3 E220.44352
G1 X128.8 Y110.3 E221.36648
G1 X128.8 Y123.5 E222.02503
G1 X128.8 Y123.7 E222.03501
G1 X129 Y123.7 E222.04147
G1 X145.6 Y123.699 E222.86965
G1 X145.8 Y123.699 E222.87963
G1 X145.8 Y123.899 E222.88609
G1 X145.8 Y129.299 E223.1555
G1 X122.2 Y129.299 E224.33291
G1 X122.2 Y110.3 E225.28077
G1 X77.8 Y110.3 E227.49589
G0 F3300 X77.522 Y109.719
;TYPE:SKIN
G1 F2100 X85.962 Y101.279 E228.09138
G0 X86.032 Y101.209
G0 F3300 X86.527 Y101.279
G1 F2100 X78.087 Y109.719 E228.68687
G0 X78.017 Y109.789
G0 F3300 X78.653 Y109.719
G1 F2100 X87.093 Y101.279 E229.28236
G0 X87.163 Y101.209
G0 F3300 X87.659 Y101.279
G1 F2100 X79.219 Y109.719 E229.87784
G0 X79.149 Y109.789
G0 F3300 X79.784 Y109.719
G1 F2100 X88.225 Y101.279 E230.47337
G0 X88.295 Y101.209
G0 F3300 X88.79 Y101.279
G1 F2100 X80.35 Y109.719 E231.06886
G0 X80.28 Y109.789
G0 F3300 X80.916 Y109.719
G1 F2100 X89.356 Y101.279 E231.66434
G0 X89.426 Y101.209
G0 F3300 X89.922 Y101.279
G1 F2100 X81.482 Y109.719 E232.25983
G0 X81.412 Y109.789
G0 F3300 X82.047 Y109.719
G1 F2100 X90.487 Y101.279 E232.85532
G0 X90.557 Y101.209
G0 F3300 X91.053 Y101.279
G1 F2100 X82.613 Y109.719 E233.45081
G0 X82.543 Y109.789
G0 F3300 X83.179 Y109.719
G1 F2100 X91.619 Y101.279 E234.04629
G0 X91.689 Y101.209
G0 F3300 X92.184 Y101.279
G1 F2100 X83.744 Y109.719 E234.64178
G0 X83.674 Y109.789
G0 F3300 X84.31 Y109.719
G1 F2100 X92.75 Y101.279 E235.23727
G0 X92.82 Y101.209
G0 F3300 X93.316 Y101.279
G1 F2100 X84.876 Y109.719 E235.83276
G0 X84.806 Y109.789
G0 F3300 X85.441 Y109.719
G1 F2100 X93.881 Y101.279 E236.42824
G0 X93.951 Y101.209
G0 F3300 X94.447 Y101.279
G1 F2100 X86.007 Y109.719 E237.02373
G0 X85.937 Y109.789
G0 F3300 X86.573 Y109.719
G1 F2100 X95.013 Y101.279 E237.61922
G0 X95.083 Y101.209
G0 F3300 X95.578 Y101.279
G1 F2100 X87.138 Y109.719 E238.21471
G0 X87.068 Y109.789
G0 F3300 X87.704 Y109.719
G1 F2100 X96.144 Y101.279 E238.81019
G0 X96.214 Y101.209
G0 F3300 X96.71 Y101.279
G1 F2100 X88.27 Y109.719 E239.40568
G0 X88.2 Y109.789
G0 F3300 X88.835 Y109.719
G1 F2100 X97.275 Y101.279 E240.00117
G0 X97.345 Y101.209
G0 F3300 X97.841 Y101.279
G1 F2100 X89.401 Y109.719 E240.59666
G0 X89.331 Y109.789
G0 F3300 X89.967 Y109.719
G1 F2100 X98.407 Y101.279 E241.19214
G0 X98.477 Y101.209
G0 F3300 X98.973 Y101.279
G1 F2100 X90.533 Y109.719 E241.78763
G0 X90.463 Y109.789
G0 F3300 X91.098 Y109.719
G1 F2100 X99.538 Y101.279 E242.38312
G0 X99.608 Y101.209
G0 F3300 X100.104 Y101.279
G1 F2100 X91.664 Y109.719 E242.97861
G0 X91.594 Y109.789
G0 F3300 X92.23 Y109.719
G1 F2100 X100.67 Y101.279 E243.57409
G0 X100.74 Y101.209
G0 F3300 X101.235 Y101.279
G1 F2100 X92.795 Y109.719 E244.16958
G0 X92.725 Y109.789
G0 F3300 X93.361 Y109.719
G1 F2100 X101.801 Y101.279 E244.76507
G0 X101.871 Y101.209
G0 F3300 X102.367 Y101.279
G1 F2100 X93.927 Y109.719 E245.36056
G0 X93.857 Y109.789
G0 F3300 X94.492 Y109.719
G1 F2100 X102.932 Y101.279 E245.95604
G0 X103.002 Y101.209
G0 F3300 X103.498 Y101.279
G1 F2100 X95.058 Y109.719 E246.55153
G0 X94.988 Y109.789
G0 F3300 X95.624 Y109.719
G1 F2100 X104.064 Y101.279 E247.14702
G0 X104.134 Y101.209
G0 F3300 X104.629 Y101.279
G1 F2100 X96.189 Y109.719 E247.74251
G0 X96.119 Y109.789
G0 F3300 X96.755 Y109.719
G1 F2100 X105.195 Y101.279 E248.338
G0 X105.265 Y101.209
G0 F3300 X105.761 Y101.279
G1 F2100 X97.321 Y109.719 E248.93348
G0 X97.251 Y109.789
G0 F3300 X97.886 Y109.719
G1 F2100 X106.326 Y101.279 E249.52897
G0 X106.396 Y101.209
G0 F3300 X106.892 Y101.279
G1 F2100 X98.452 Y109.719 E250.12446
G0 X98.382 Y109.789
G0 F3300 X99.018 Y109.719
G1 F2100 X107.458 Y101.279 E250.71995
G0 X107.528 Y101.209
G0 F3300 X108.023 Y101.279
G1 F2100 X99.583 Y109.719 E251.31543
G0 X99.513 Y109.789
G0 F3300 X100.148 Y109.72
G1 F2100 X108.589 Y101.279 E251.91099
G0 X108.659 Y101.209
G0 F3300 X109.155 Y101.279
G1 F2100 X100.714 Y109.72 E252.50655
G0 X100.644 Y109.79
G0 F3300 X101.28 Y109.72
G1 F2100 X109.721 Y101.279 E253.10211
G0 X109.791 Y101.209
G0 F3300 X110.286 Y101.279
G1 F2100 X101.846 Y109.72 E253.69763
G0 X101.776 Y109.79
G0 F3300 X102.411 Y109.72
G1 F2100 X110.852 Y101.279 E254.29319
G0 X110.922 Y101.209
G0 F3300 X111.418 Y101.279
G1 F2100 X102.977 Y109.72 E254.88875
G0 X102.907 Y109.79
G0 F3300 X103.543 Y109.72
G1 F2100 X111.983 Y101.279 E255.48427
G0 X112.053 Y101.209
G0 F3300 X112.549 Y101.279
G1 F2100 X104.108 Y109.72 E256.07983
G0 X104.038 Y109.79
G0 F3300 X104.674 Y109.72
G1 F2100 X113.115 Y101.279 E256.67539
G0 X113.185 Y101.209
G0 F3300 X113.68 Y101.279
G1 F2100 X105.24 Y109.72 E257.27091
G0 X105.17 Y109.79
G0 F3300 X105.805 Y109.72
G1 F2100 X114.246 Y101.279 E257.86647
G0 X114.316 Y101.209
G0 F3300 X114.812 Y101.279
G1 F2100 X106.371 Y109.72 E258.46203
G0 X106.301 Y109.79
G0 F3300 X106.937 Y109.72
G1 F2100 X115.377 Y101.279 E259.05755
G0 X115.447 Y101.209
G0 F3300 X115.943 Y101.279
G1 F2100 X107.502 Y109.72 E259.65311
G0 X107.432 Y109.79
G0 F3300 X108.068 Y109.72
G1 F2100 X116.509 Y101.279 E260.24866
G0 X116.579 Y101.209
G0 F3300 X117.074 Y101.279
G1 F2100 X108.634 Y109.72 E260.84419
G0 X108.564 Y109.79
G0 F3300 X109.199 Y109.72
G1 F2100 X117.64 Y101.279 E261.43975
G0 X117.71 Y101.209
G0 F3300 X118.206 Y101.279
G1 F2100 X109.765 Y109.72 E262.0353
G0 X109.695 Y109.79
G0 F3300 X110.331 Y109.72
G1 F2100 X118.772 Y101.279 E262.63086
G0 X118.842 Y101.209
G0 F3300 X119.337 Y101.279
G1 F2100 X110.896 Y109.72 E263.22642
G0 X110.826 Y109.79
G0 F3300 X111.462 Y109.72
G1 F2100 X119.903 Y101.279 E263.82198
G0 X119.973 Y101.209
G0 F3300 X120.469 Y101.279
G1 F2100 X112.028 Y109.72 E264.41754
G0 X111.958 Y109.79
G0 F3300 X112.594 Y109.72
G1 F2100 X121.034 Y101.279 E265.01306
G0 X121.104 Y101.209
G0 F3300 X121.6 Y101.279
G1 F2100 X113.159 Y109.72 E265.60862
G0 X113.089 Y109.79
G0 F3300 X113.725 Y109.72
G1 F2100 X122.166 Y101.279 E266.20418
G0 X122.236 Y101.209
G0 F3300 X122.731 Y101.279
G1 F2100 X114.291 Y109.72 E266.7997
G0 X114.221 Y109.79
G0 F3300 X114.856 Y109.72
G1 F2100 X123.297 Y101.279 E267.39526
G0 X123.367 Y101.209
G0 F3300 X123.863 Y101.279
G1 F2100 X115.422 Y109.72 E267.99081
G0 X115.352 Y109.79
G0 F3300 X115.988 Y109.72
G1 F2100 X124.428 Y101.279 E268.58634
G0 X124.498 Y101.209
G0 F3300 X124.994 Y101.279
G1 F2100 X116.553 Y109.72 E269.1819
G0 X116.483 Y109.79
G0 F3300 X117.119 Y109.72
G1 F2100 X125.56 Y101.279 E269.77745
G0 X125.63 Y101.209
G0 F3300 X126.125 Y101.279
G1 F2100 X117.685 Y109.72 E270.37298
G0 X117.615 Y109.79
G0 F3300 X118.25 Y109.72
G1 F2100 X126.691 Y101.279 E270.96853
G0 X126.761 Y101.209
G0 F3300 X127.257 Y101.279
G1 F2100 X118.816 Y109.72 E271.56409
G0 X118.746 Y109.79
G0 F3300 X119.382 Y109.72
G1 F2100 X127.822 Y101.279 E272.15962
G0 X127.892 Y101.209
G0 F3300 X128.388 Y101.279
G1 F2100 X119.947 Y109.72 E272.75517
G0 X119.877 Y109.79
G0 F3300 X120.513 Y109.72
G1 F2100 X128.954 Y101.279 E273.35073
G0 X129.024 Y101.209
G0 F3300 X129.52 Y101.279
G1 F2100 X121.079 Y109.72 E273.94629
G0 X121.009 Y109.79
G0 F3300 X121.644 Y109.72
G1 F2100 X130.085 Y101.279 E274.54185
G0 X130.155 Y101.209
G0 F3300 X130.651 Y101.279
G1 F2100 X122.21 Y109.72 E275.13741
G0 X122.14 Y109.79
G0 F3300 X122.776 Y109.72
G1 F2100 X131.217 Y101.279 E275.73296
G0 X131.287 Y101.209
G0 F3300 X131.782 Y101.279
G1 F2100 X122.779 Y110.282 E276.36817
G0 X122.709 Y110.352
G0 F3300 X122.779 Y110.848
G1 F2100 X132.348 Y101.279 E277.04332
G0 X132.418 Y101.209
G0 F3300 X132.914 Y101.279
G1 F2100 X122.779 Y111.413 E277.75836
G0 X122.709 Y111.483
G0 F3300 X122.779 Y111.979
G1 F2100 X133.479 Y101.279 E278.51331
G0 X133.549 Y101.209
G0 F3300 X134.045 Y101.279
G1 F2100 X122.779 Y112.545 E279.30818
G0 X122.709 Y112.615
G0 F3300 X122.779 Y113.11
G1 F2100 X134.611 Y101.279 E280.14296
G0 X134.681 Y101.209
G0 F3300 X135.176 Y101.279
G1 F2100 X122.779 Y113.676 E281.01763
G0 X122.709 Y113.746
G0 F3300 X122.779 Y114.242
G1 F2100 X135.742 Y101.279 E281.93224
G0 X135.812 Y101.209
G0 F3300 X136.308 Y101.279
G1 F2100 X122.779 Y114.807 E282.88675
G0 X122.709 Y114.877
G0 F3300 X122.779 Y115.373
G1 F2100 X128.218 Y109.934 E283.2705
G0 X128.288 Y109.864
G0 F3300 X128.433 Y109.72
G1 F2100 X136.873 Y101.279 E283.86603
G0 X136.943 Y101.209
G0 F3300 X137.439 Y101.279
G1 F2100 X128.998 Y109.72 E284.46158
G0 X128.928 Y109.79
G0 F3300 X129.564 Y109.72
G1 F2100 X138.005 Y101.279 E285.05714
G0 X138.075 Y101.209
G0 F3300 X138.571 Y101.279
G1 F2100 X130.13 Y109.72 E285.6527
G0 X130.06 Y109.79
G0 F3300 X130.695 Y109.72
G1 F2100 X139.136 Y101.279 E286.24826
G0 X139.206 Y101.209
G0 F3300 X139.702 Y101.279
G1 F2100 X131.261 Y109.72 E286.84382
G0 X131.191 Y109.79
G0 F3300 X131.827 Y109.72
G1 F2100 X140.268 Y101.279 E287.43938
G0 X140.338 Y101.209
G0 F3300 X140.833 Y101.279
G1 F2100 X132.393 Y109.72 E288.0349
G0 X132.323 Y109.79
G0 F3300 X132.958 Y109.72
G1 F2100 X141.399 Y101.279 E288.63046
G0 X141.469 Y101.209
G0 F3300 X141.965 Y101.279
G1 F2100 X133.524 Y109.72 E289.22601
G0 X133.454 Y109.79
G0 F3300 X134.09 Y109.72
G1 F2100 X142.53 Y101.279 E289.82154
G0 X142.6 Y101.209
G0 F3300 X143.096 Y101.279
G1 F2100 X134.655 Y109.72 E290.4171
G0 X134.585 Y109.79
G0 F3300 X135.221 Y109.72
G1 F2100 X143.662 Y101.279 E291.01265
G0 X143.732 Y101.209
G0 F3300 X144.227 Y101.279
G1 F2100 X135.787 Y109.72 E291.60818
G0 X135.717 Y109.79
G0 F3300 X136.352 Y109.72
G1 F2100 X144.793 Y101.279 E292.20373
G0 X144.863 Y101.209
G0 F3300 X145.359 Y101.279
G1 F2100 X136.918 Y109.72 E292.79929
G0 X136.848 Y109.79
G0 F3300 X137.484 Y109.72
G1 F2100 X145.924 Y101.279 E293.39482
G0 X145.994 Y101.209
G0 F3300 X146.49 Y101.279
G1 F2100 X138.049 Y109.72 E293.99037
G0 X137.979 Y109.79
G0 F3300 X138.615 Y109.72
G1 F2100 X146.719 Y101.616 E294.56215
G0 X146.789 Y101.546
G0 F3300 X146.719 Y102.182
G1 F2100 X139.181 Y109.72 E295.094
G0 X139.111 Y109.79
G0 F3300 X139.746 Y109.72
G1 F2100 X146.719 Y102.748 E295.58595
G0 X146.789 Y102.678
G0 F3300 X146.719 Y103.313
G1 F2100 X140.312 Y109.72 E296.038
G0 X140.242 Y109.79
G0 F3300 X140.878 Y109.72
G1 F2100 X146.719 Y103.879 E296.45011
G0 X146.789 Y103.809
G0 F3300 X146.719 Y104.445
G1 F2100 X141.443 Y109.72 E296.82233
G0 X141.373 Y109.79
G0 F3300 X142.009 Y109.72
G1 F2100 X146.719 Y105.011 E297.15461
G0 X146.789 Y104.941
G0 F3300 X146.719 Y105.576
G1 F2100 X142.575 Y109.72 E297.44699
G0 X142.505 Y109.79
G0 F3300 X143.141 Y109.72
G1 F2100 X146.719 Y106.142 E297.69944
G0 X146.789 Y106.072
G0 F3300 X146.719 Y106.708
G1 F2100 X143.706 Y109.72 E297.91198
G0 X143.636 Y109.79
G0 F3300 X144.272 Y109.72
G1 F2100 X146.719 Y107.273 E298.08463
G0 X146.789 Y107.203
G0 F3300 X146.719 Y107.839
G1 F2100 X144.838 Y109.72 E298.21735
G0 X144.768 Y109.79
G0 F3300 X145.403 Y109.72
G1 F2100 X146.719 Y108.405 E298.31016
G0 X146.789 Y108.335
G0 F3300 X146.719 Y108.97
G1 F2100 X145.969 Y109.72 E298.36308
G0 X145.899 Y109.79
G0 F3300 X146.535 Y109.72
G1 F2100 X146.719 Y109.536 E298.37606
G0 F3300 X128.372 Y109.872
G0 X128.372 Y124.128
G0 X144.987 Y124.278
G1 F2100 X140.546 Y128.719 E298.6894
G0 X140.476 Y128.789
G0 F3300 X139.98 Y128.719
G1 F2100 X144.421 Y124.278 E299.00274
G0 X144.491 Y124.208
G0 F3300 X143.855 Y124.278
G1 F2100 X139.415 Y128.719 E299.31604
G0 X139.345 Y128.789
G0 F3300 X138.849 Y128.719
G1 F2100 X143.29 Y124.278 E299.62937
G0 X143.36 Y124.208
G0 F3300 X142.724 Y124.278
G1 F2100 X138.283 Y128.719 E299.94271
G0 X138.213 Y128.789
G0 F3300 X137.718 Y128.719
G1 F2100 X142.158 Y124.278 E300.25601
G0 X142.228 Y124.208
G0 F3300 X141.593 Y124.278
G1 F2100 X137.152 Y128.719 E300.56935
G0 X137.082 Y128.789
G0 F3300 X136.586 Y128.719
G1 F2100 X141.027 Y124.278 E300.88268
G0 X141.097 Y124.208
G0 F3300 X140.461 Y124.278
G1 F2100 X136.021 Y128.719 E301.19599
G0 X135.951 Y128.789
G0 F3300 X135.455 Y128.719
G1 F2100 X139.896 Y124.278 E301.50932
G0 X139.966 Y124.208
G0 F3300 X139.33 Y124.278
G1 F2100 X134.889 Y128.719 E301.82266
G0 X134.819 Y128.789
G0 F3300 X134.324 Y128.719
G1 F2100 X138.764 Y124.278 E302.13596
G0 X138.834 Y124.208
G0 F3300 X138.199 Y124.278
G1 F2100 X133.759 Y128.718 E302.44923
G0 X133.689 Y128.788
G0 F3300 X133.193 Y128.718
G1 F2100 X137.633 Y124.278 E302.76249
G0 X137.703 Y124.208
G0 F3300 X137.067 Y124.278
G1 F2100 X132.627 Y128.718 E303.07576
G0 X132.557 Y128.788
G0 F3300 X132.062 Y128.718
G1 F2100 X136.502 Y124.278 E303.38902
G0 X136.572 Y124.208
G0 F3300 X135.936 Y124.278
G1 F2100 X131.496 Y128.718 E303.70229
G0 X131.426 Y128.788
G0 F3300 X130.93 Y128.718
G1 F2100 X135.37 Y124.278 E304.01556
G0 X135.44 Y124.208
G0 F3300 X134.804 Y124.278
G1 F2100 X130.365 Y128.718 E304.32879
G0 X130.295 Y128.788
G0 F3300 X129.799 Y128.718
G1 F2100 X134.239 Y124.278 E304.64205
G0 X134.309 Y124.208
G0 F3300 X133.673 Y124.278
G1 F2100 X129.233 Y128.718 E304.95532
G0 X129.163 Y128.788
G0 F3300 X128.667 Y128.718
G1 F2100 X133.107 Y124.278 E305.26858
G0 X133.177 Y124.208
G0 F3300 X132.542 Y124.278
G1 F2100 X128.102 Y128.718 E305.58185
G0 X128.032 Y128.788
G0 F3300 X127.536 Y128.718
G1 F2100 X131.976 Y124.278 E305.89512
G0 X132.046 Y124.208
G0 F3300 X131.41 Y124.278
G1 F2100 X126.97 Y128.718 E306.20838
G0 X126.9 Y128.788
G0 F3300 X126.405 Y128.718
G1 F2100 X130.845 Y124.278 E306.52165
G0 X130.915 Y124.208
G0 F3300 X130.279 Y124.278
G1 F2100 X125.839 Y128.718 E306.83491
G0 X125.769 Y128.788
G0 F3300 X125.273 Y128.718
G1 F2100 X129.713 Y124.278 E307.14818
G0 X129.783 Y124.208
G0 F3300 X129.148 Y124.278
G1 F2100 X124.708 Y128.718 E307.46145
G0 X124.638 Y128.788
G0 F3300 X124.142 Y128.718
G1 F2100 X128.582 Y124.278 E307.77471
G0 X128.652 Y124.208
G0 F3300 X128.218 Y124.076
G1 F2100 X123.576 Y128.718 E308.10223
G0 X123.506 Y128.788
G0 F3300 X123.011 Y128.718
G1 F2100 X128.218 Y123.511 E308.46961
G0 X128.288 Y123.441
G0 F3300 X128.218 Y122.945
G1 F2100 X122.779 Y128.384 E308.85336
G0 X122.709 Y128.454
G0 F3300 X122.779 Y127.818
G1 F2100 X128.218 Y122.379 E309.23711
G0 X128.288 Y122.309
G0 F3300 X128.218 Y121.813
G1 F2100 X122.779 Y127.253 E309.6209
G0 X122.709 Y127.323
G0 F3300 X122.779 Y126.687
G1 F2100 X128.218 Y121.248 E310.00465
G0 X128.288 Y121.178
G0 F3300 X128.218 Y120.682
G1 F2100 X122.779 Y126.121 E310.3884
G0 X122.709 Y126.191
G0 F3300 X122.779 Y125.556
G1 F2100 X128.218 Y120.116 E310.77219
G0 X128.288 Y120.046
G0 F3300 X128.218 Y119.551
G1 F2100 X122.779 Y124.99 E311.15594
G0 X122.709 Y125.06
G0 F3300 X122.779 Y124.424
G1 F2100 X128.218 Y118.985 E311.53969
G0 X128.288 Y118.915
G0 F3300 X128.218 Y118.419
G1 F2100 X122.779 Y123.858 E311.92344
G0 X122.709 Y123.928
G0 F3300 X122.779 Y123.293
G1 F2100 X128.218 Y117.854 E312.30719
G0 X128.288 Y117.784
G0 F3300 X128.218 Y117.288
G1 F2100 X122.779 Y122.727 E312.69094
G0 X122.709 Y122.797
G0 F3300 X122.779 Y122.161
G1 F2100 X128.218 Y116.722 E313.07469
G0 X128.288 Y116.652
G0 F3300 X128.218 Y116.157
G1 F2100 X122.779 Y121.596 E313.45844
G0 X122.709 Y121.666
G0 F3300 X122.779 Y121.03
G1 F2100 X128.218 Y115.591 E313.84219
G0 X128.288 Y115.521
G0 F3300 X128.218 Y115.025
G1 F2100 X122.779 Y120.464 E314.22594
G0 X122.709 Y120.534
G0 F3300 X122.779 Y119.899
G1 F2100 X128.218 Y114.46 E314.6097
G0 X128.288 Y114.39
G0 F3300 X128.218 Y113.894
G1 F2100 X122.779 Y119.333 E314.99345
G0 X122.709 Y119.403
G0 F3300 X122.779 Y118.767
G1 F2100 X128.218 Y113.328 E315.3772
G0 X128.288 Y113.258
G0 F3300 X128.218 Y112.763
G1 F2100 X122.779 Y118.202 E315.76095
G0 X122.709 Y118.272
G0 F3300 X122.779 Y117.636
G1 F2100 X128.218 Y112.197 E316.1447
G0 X128.288 Y112.127
G0 F3300 X128.218 Y111.631
G1 F2100 X122.779 Y117.07 E316.52845
G0 X122.709 Y117.14
G0 F3300 X122.779 Y116.505
G1 F2100 X128.218 Y111.065 E316.91224
G0 X128.288 Y110.995
G0 F3300 X128.218 Y110.5
G1 F2100 X122.779 Y115.939 E317.29599
G0 X122.709 Y116.009
G0 F3300 X128.372 Y124.128
G0 X141.112 Y128.719
G1 F2100 X145.219 Y124.612 E317.58576
G0 X145.289 Y124.542
G0 F3300 X145.219 Y125.178
G1 F2100 X141.678 Y128.719 E317.83559
G0 X141.608 Y128.789
G0 F3300 X142.243 Y128.719
G1 F2100 X145.219 Y125.744 E318.04553
G0 X145.289 Y125.674
G0 F3300 X145.219 Y126.309
G1 F2100 X142.809 Y128.719 E318.21557
G0 X142.739 Y128.789
G0 F3300 X143.375 Y128.719
G1 F2100 X145.219 Y126.875 E318.34567
G0 X145.289 Y126.805
G0 F3300 X145.219 Y127.441
G1 F2100 X143.94 Y128.719 E318.43588
G0 X143.87 Y128.789
G0 F3300 X144.506 Y128.719
G1 F2100 X145.219 Y128.006 E318.48619
G0 X145.289 Y127.936
G0 F3300 X145.219 Y128.572
G1 F2100 X145.072 Y128.719 E318.49656
G0 F3300 X122.628 Y128.871
G0 X122.628 Y109.872
G0 X85.396 Y101.279
G1 F2100 X71.779 Y114.896 E319.45731
G0 X71.709 Y114.966
G0 F3300 X71.779 Y114.33
G1 F2100 X84.83 Y101.279 E320.37813
G0 X84.9 Y101.209
G0 F3300 X84.265 Y101.279
G1 F2100 X71.779 Y113.764 E321.25905
G0 X71.709 Y113.834
G0 F3300 X71.779 Y113.199
G1 F2100 X83.699 Y101.279 E322.10007
G0 X83.769 Y101.209
G0 F3300 X83.133 Y101.279
G1 F2100 X71.779 Y112.633 E322.90115
G0 X71.709 Y112.703
G0 F3300 X71.779 Y112.067
G1 F2100 X82.568 Y101.279 E323.66234
G0 X82.638 Y101.209
G0 F3300 X82.002 Y101.279
G1 F2100 X71.779 Y111.502 E324.38363
G0 X71.709 Y111.572
G0 F3300 X71.779 Y110.936
G1 F2100 X81.436 Y101.279 E325.06498
G0 X81.506 Y101.209
G0 F3300 X80.871 Y101.279
G1 F2100 X71.779 Y110.37 E325.70644
G0 X71.709 Y110.44
G0 F3300 X71.779 Y109.805
G1 F2100 X80.305 Y101.279 E326.30799
G0 X80.375 Y101.209
G0 F3300 X79.739 Y101.279
G1 F2100 X71.299 Y109.719 E326.90348
G0 X71.229 Y109.789
G0 F3300 X70.734 Y109.719
G1 F2100 X79.174 Y101.279 E327.49897
G0 X79.244 Y101.209
G0 F3300 X78.608 Y101.279
G1 F2100 X70.168 Y109.719 E328.09446
G0 X70.098 Y109.789
G0 F3300 X69.602 Y109.719
G1 F2100 X78.042 Y101.279 E328.68994
G0 X78.112 Y101.209
G0 F3300 X77.476 Y101.279
G1 F2100 X69.036 Y109.719 E329.28543
G0 X68.966 Y109.789
G0 F3300 X68.471 Y109.719
G1 F2100 X76.911 Y101.279 E329.88092
G0 X76.981 Y101.209
G0 F3300 X76.345 Y101.279
G1 F2100 X67.905 Y109.719 E330.47641
G0 X67.835 Y109.789
G0 F3300 X67.339 Y109.719
G1 F2100 X75.779 Y101.279 E331.07189
G0 X75.849 Y101.209
G0 F3300 X75.214 Y101.279
G1 F2100 X66.774 Y109.719 E331.66738
G0 X66.704 Y109.789
G0 F3300 X66.208 Y109.719
G1 F2100 X74.648 Y101.279 E332.26287
G0 X74.718 Y101.209
G0 F3300 X74.082 Y101.279
G1 F2100 X65.642 Y109.719 E332.85836
G0 X65.572 Y109.789
G0 F3300 X65.077 Y109.719
G1 F2100 X73.517 Y101.279 E333.45384
G0 X73.587 Y101.209
G0 F3300 X72.951 Y101.279
G1 F2100 X64.511 Y109.719 E334.04933
G0 X64.441 Y109.789
G0 F3300 X63.945 Y109.719
G1 F2100 X72.385 Y101.279 E334.64482
G0 X72.455 Y101.209
G0 F3300 X71.82 Y101.279
G1 F2100 X63.38 Y109.719 E335.24031
G0 X63.31 Y109.789
G0 F3300 X62.814 Y109.719
G1 F2100 X71.254 Y101.279 E335.83579
G0 X71.324 Y101.209
G0 F3300 X70.688 Y101.279
G1 F2100 X62.248 Y109.719 E336.43128
G0 X62.178 Y109.789
G0 F3300 X61.683 Y109.719
G1 F2100 X70.123 Y101.279 E337.02677
G0 X70.193 Y101.209
G0 F3300 X69.557 Y101.279
G1 F2100 X61.117 Y109.719 E337.62226
G0 X61.047 Y109.789
G0 F3300 X60.551 Y109.719
G1 F2100 X68.991 Y101.279 E338.21774
G0 X69.061 Y101.209
G0 F3300 X68.426 Y101.279
G1 F2100 X59.985 Y109.719 E338.81327
G0 X59.915 Y109.789
G0 F3300 X59.42 Y109.719
G1 F2100 X67.86 Y101.279 E339.40876
G0 X67.93 Y101.209
G0 F3300 X67.294 Y101.279
G1 F2100 X58.854 Y109.719 E340.00424
G0 X58.784 Y109.789
G0 F3300 X58.288 Y109.719
G1 F2100 X66.728 Y101.279 E340.59973
G0 X66.798 Y101.209
G0 F3300 X66.163 Y101.279
G1 F2100 X57.723 Y109.719 E341.19522
G0 X57.653 Y109.789
G0 F3300 X57.157 Y109.719
G1 F2100 X65.597 Y101.279 E341.79071
G0 X65.667 Y101.209
G0 F3300 X65.031 Y101.279
G1 F2100 X56.591 Y109.719 E342.38619
G0 X56.521 Y109.789
G0 F3300 X56.026 Y109.719
G1 F2100 X64.466 Y101.279 E342.98168
G0 X64.536 Y101.209
G0 F3300 X63.9 Y101.279
G1 F2100 X55.46 Y109.719 E343.57717
G0 X55.39 Y109.789
G0 F3300 X54.894 Y109.719
G1 F2100 X63.334 Y101.279 E344.17266
G0 X63.404 Y101.209
G0 F3300 X62.769 Y101.279
G1 F2100 X54.329 Y109.719 E344.76814
G0 X54.259 Y109.789
G0 F3300 X53.763 Y109.719
G1 F2100 X62.203 Y101.279 E345.36363
G0 X62.273 Y101.209
G0 F3300 X61.637 Y101.279
G1 F2100 X53.279 Y109.637 E345.95333
G0 X53.209 Y109.707
G0 F3300 X53.279 Y109.071
G1 F2100 X61.072 Y101.279 E346.50314
G0 X61.142 Y101.209
G0 F3300 X60.506 Y101.279
G1 F2100 X53.279 Y108.506 E347.01304
G0 X53.209 Y108.576
G0 F3300 X53.279 Y107.94
G1 F2100 X59.94 Y101.279 E347.48301
G0 X60.01 Y101.209
G0 F3300 X59.375 Y101.279
G1 F2100 X53.279 Y107.374 E347.91308
G0 X53.209 Y107.444
G0 F3300 X53.279 Y106.809
G1 F2100 X58.809 Y101.279 E348.30325
G0 X58.879 Y101.209
G0 F3300 X58.243 Y101.279
G1 F2100 X53.279 Y106.243 E348.65349
G0 X53.209 Y106.313
G0 F3300 X53.279 Y105.677
G1 F2100 X57.677 Y101.279 E348.96379
G0 X57.747 Y101.209
G0 F3300 X57.112 Y101.279
G1 F2100 X53.279 Y105.112 E349.23423
G0 X53.209 Y105.182
G0 F3300 X53.279 Y104.546
G1 F2100 X56.546 Y101.279 E349.46473
G0 X56.616 Y101.209
G0 F3300 X55.98 Y101.279
G1 F2100 X53.279 Y103.98 E349.6553
G0 X53.209 Y104.05
G0 F3300 X53.279 Y103.415
G1 F2100 X55.415 Y101.279 E349.80601
G0 X55.485 Y101.209
G0 F3300 X54.849 Y101.279
G1 F2100 X53.279 Y102.849 E349.91678
G0 X53.209 Y102.919
G0 F3300 X53.279 Y102.283
G1 F2100 X54.283 Y101.279 E349.98762
G0 X54.353 Y101.209
G0 F3300 X53.718 Y101.279
G1 F2100 X53.279 Y101.718 E350.01859
G0 F3300 X71.628 Y109.872
G0 X71.628 Y124.127
G0 X55.044 Y124.278
G1 F2100 X54.78 Y124.542 E350.03722
G0 F3300 X54.78 Y125.107
G1 F2100 X55.609 Y124.278 E350.09571
G0 X55.679 Y124.208
G0 F3300 X56.175 Y124.278
G1 F2100 X54.78 Y125.673 E350.19414
G0 X54.71 Y125.743
G0 F3300 X54.78 Y126.239
G1 F2100 X56.741 Y124.278 E350.3325
G0 X56.811 Y124.208
G0 F3300 X57.306 Y124.278
G1 F2100 X54.78 Y126.804 E350.51072
G0 X54.71 Y126.874
G0 F3300 X54.78 Y127.37
G1 F2100 X57.872 Y124.278 E350.72888
G0 X57.942 Y124.208
G0 F3300 X58.438 Y124.278
G1 F2100 X54.78 Y127.936 E350.98697
G0 X54.71 Y128.006
G0 F3300 X54.78 Y128.501
G1 F2100 X59.003 Y124.278 E351.28492
G0 X59.073 Y124.208
G0 F3300 X59.569 Y124.278
G1 F2100 X55.129 Y128.718 E351.59819
G0 X55.059 Y128.788
G0 F3300 X55.695 Y128.718
G1 F2100 X60.135 Y124.278 E351.91145
G0 X60.205 Y124.208
G0 F3300 X60.7 Y124.278
G1 F2100 X56.26 Y128.718 E352.22472
G0 X56.19 Y128.788
G0 F3300 X56.826 Y128.718
G1 F2100 X61.266 Y124.278 E352.53799
G0 X61.336 Y124.208
G0 F3300 X61.832 Y124.278
G1 F2100 X57.392 Y128.718 E352.85125
G0 X57.322 Y128.788
G0 F3300 X57.958 Y128.718
G1 F2100 X62.397 Y124.278 E353.16448
G0 X62.467 Y124.208
G0 F3300 X62.963 Y124.278
G1 F2100 X58.523 Y128.718 E353.47775
G0 X58.453 Y128.788
G0 F3300 X59.089 Y128.718
G1 F2100 X63.529 Y124.278 E353.79101
G0 X63.599 Y124.208
G0 F3300 X64.094 Y124.278
G1 F2100 X59.655 Y128.718 E354.10425
G0 X59.585 Y128.788
G0 F3300 X60.22 Y128.718
G1 F2100 X64.66 Y124.278 E354.41751
G0 X64.73 Y124.208
G0 F3300 X65.226 Y124.278
G1 F2100 X60.786 Y128.718 E354.73078
G0 X60.716 Y128.788
G0 F3300 X61.352 Y128.718
G1 F2100 X65.792 Y124.278 E355.04404
G0 X65.862 Y124.208
G0 F3300 X66.357 Y124.278
G1 F2100 X61.917 Y128.718 E355.35731
G0 X61.847 Y128.788
G0 F3300 X62.483 Y128.718
G1 F2100 X66.923 Y124.278 E355.67058
G0 X66.993 Y124.208
G0 F3300 X67.489 Y124.278
G1 F2100 X63.049 Y128.718 E355.98384
G0 X62.979 Y128.788
G0 F3300 X63.614 Y128.718
G1 F2100 X68.054 Y124.278 E356.29711
G0 X68.124 Y124.208
G0 F3300 X68.62 Y124.278
G1 F2100 X64.18 Y128.718 E356.61037
G0 X64.11 Y128.788
G0 F3300 X64.746 Y128.718
G1 F2100 X69.186 Y124.278 E356.92364
G0 X69.256 Y124.208
G0 F3300 X69.751 Y124.278
G1 F2100 X65.311 Y128.718 E357.23691
G0 X65.241 Y128.788
G0 F3300 X65.877 Y128.718
G1 F2100 X70.317 Y124.278 E357.55017
G0 X70.387 Y124.208
G0 F3300 X70.883 Y124.278
G1 F2100 X66.443 Y128.718 E357.86344
G0 X66.373 Y128.788
G0 F3300 X67.008 Y128.718
G1 F2100 X71.448 Y124.278 E358.1767
G0 X71.518 Y124.208
G0 F3300 X71.779 Y123.947
G1 F2100 X77.219 Y118.507 E358.56052
G0 X77.289 Y118.437
G0 F3300 X77.219 Y117.941
G1 F2100 X71.779 Y123.381 E358.94435
G0 X71.709 Y123.451
G0 F3300 X71.779 Y122.815
G1 F2100 X77.219 Y117.376 E359.32813
G0 X77.289 Y117.306
G0 F3300 X77.219 Y116.81
G1 F2100 X71.779 Y122.25 E359.71195
G0 X71.709 Y122.32
G0 F3300 X71.779 Y121.684
G1 F2100 X77.219 Y116.244 E360.09578
G0 X77.289 Y116.174
G0 F3300 X77.219 Y115.679
G1 F2100 X71.779 Y121.118 E360.47956
G0 X71.709 Y121.188
G0 F3300 X71.779 Y120.553
G1 F2100 X77.219 Y115.113 E360.86338
G0 X77.289 Y115.043
G0 F3300 X77.219 Y114.547
G1 F2100 X71.779 Y119.987 E361.2472
G0 X71.709 Y120.057
G0 F3300 X71.779 Y119.421
G1 F2100 X77.219 Y113.982 E361.63099
G0 X77.289 Y113.912
G0 F3300 X77.219 Y113.416
G1 F2100 X71.779 Y118.856 E362.01481
G0 X71.709 Y118.926
G0 F3300 X71.779 Y118.29
G1 F2100 X77.219 Y112.85 E362.39863
G0 X77.289 Y112.78
G0 F3300 X77.219 Y112.285
G1 F2100 X71.779 Y117.724 E362.78242
G0 X71.709 Y117.794
G0 F3300 X71.779 Y117.159
G1 F2100 X77.219 Y111.719 E363.16624
G0 X77.289 Y111.649
G0 F3300 X77.219 Y111.153
G1 F2100 X71.779 Y116.593 E363.55006
G0 X71.709 Y116.663
G0 F3300 X71.779 Y116.027
G1 F2100 X77.219 Y110.587 E363.93388
G0 X77.289 Y110.517
G0 F3300 X77.219 Y110.022
G1 F2100 X71.779 Y115.462 E364.3177
G0 X71.709 Y115.532
G0 F3300 X77.219 Y119.073
G1 F2100 X67.574 Y128.718 E364.99821
G0 X67.504 Y128.788
G0 F3300 X68.14 Y128.718
G1 F2100 X77.219 Y119.638 E365.63882
G0 X77.289 Y119.568
G0 F3300 X77.219 Y120.204
G1 F2100 X68.706 Y128.718 E366.23949
G0 X68.636 Y128.788
G0 F3300 X69.271 Y128.718
G1 F2100 X77.219 Y120.77 E366.80027
G0 X77.289 Y120.7
G0 F3300 X77.219 Y121.335
G1 F2100 X69.837 Y128.718 E367.32114
G0 X69.767 Y128.788
G0 F3300 X70.403 Y128.718
G1 F2100 X77.219 Y121.901 E367.80208
G0 X77.289 Y121.831
G0 F3300 X77.219 Y122.467
G1 F2100 X70.968 Y128.718 E368.24312
G0 X70.898 Y128.788
G0 F3300 X71.534 Y128.718
G1 F2100 X77.219 Y123.033 E368.64423
G0 X77.289 Y122.963
G0 F3300 X77.219 Y123.598
G1 F2100 X72.1 Y128.718 E369.00544
G0 X72.03 Y128.788
G0 F3300 X72.665 Y128.718
G1 F2100 X77.219 Y124.164 E369.32675
G0 X77.289 Y124.094
G0 F3300 X77.219 Y124.73
G1 F2100 X73.231 Y128.718 E369.60812
G0 X73.161 Y128.788
G0 F3300 X73.797 Y128.718
G1 F2100 X77.219 Y125.295 E369.8496
G0 X77.289 Y125.225
G0 F3300 X77.219 Y125.861
G1 F2100 X74.362 Y128.718 E370.05118
G0 X74.292 Y128.788
G0 F3300 X74.928 Y128.718
G1 F2100 X77.219 Y126.427 E370.21282
G0 X77.289 Y126.357
G0 F3300 X77.219 Y126.992
G1 F2100 X75.494 Y128.718 E370.33456
G0 X75.424 Y128.788
G0 F3300 X76.059 Y128.718
G1 F2100 X77.219 Y127.558 E370.41641
G0 X77.289 Y127.488
G0 F3300 X77.219 Y128.124
G1 F2100 X76.625 Y128.718 E370.45832
G0 X76.555 Y128.788
G0 F3300 X76.555 Y128.499
;TIME_ELAPSED:343.166849
;LAYER:2
G1 F600 E364.45832
G0 F4800 X76.555 Y128.499 Z.8
G0 X77.101 Y101.14
G0 X77.101 Y99.6
;TYPE:SUPPORT
G1 F600 E370.45832
G1 F4800 X77.101 Y70.501 E371.91007
G1 X74.648 Y70.501 E372.03245
G1 X74.648 Y99.6 E373.48421
G1 X71.982 Y99.6 E373.61722
G1 X71.982 Y70.501 E375.06897
G1 X70.6 Y70.501 E375.13792
G1 X70.246 Y70.147 E375.1629
G1 X69.702 Y70.147 E375.19004
G1 X69.348 Y70.501 E375.21501
G1 X69.316 Y70.501 E375.21661
G1 X69.316 Y99.6 E376.66836
G1 X66.65 Y99.6 E376.80137
G1 X66.65 Y70.501 E378.25313
G1 X63.984 Y70.501 E378.38613
G1 X63.984 Y99.6 E379.83789
G1 X61.318 Y99.6 E379.9709
G1 X61.318 Y70.501 E381.42265
G1 X58.652 Y70.501 E381.55566
G1 X58.652 Y99.6 E383.00741
G1 X57.1 Y99.6 E383.08484
G1 X57.1 Y70.501 E384.5366
G1 X58.652 Y70.501 E384.61403
G0 X74.648 Y99.6
G1 X77.101 Y99.6 E384.73641
G0 X122.899 Y99.6
G1 X125.302 Y99.6 E384.85629
G1 X127.968 Y99.6 E384.9893
G1 X127.968 Y70.501 E386.44106
G1 X129.4 Y70.501 E386.5125
G1 X129.754 Y70.147 E386.53748
G1 X130.298 Y70.147 E386.56462
G1 X130.634 Y70.483 E386.58832
G1 X130.634 Y99.6 E388.04098
G1 X133.3 Y99.6 E388.17398
G1 X133.3 Y70.501 E389.62574
G1 X135.966 Y70.501 E389.75874
G1 X135.966 Y99.6 E391.2105
G1 X138.632 Y99.6 E391.34351
G1 X138.632 Y70.501 E392.79526
G1 X141.298 Y70.501 E392.92827
G1 X142.9 Y70.501 E393.00819
G1 X142.9 Y99.6 E394.45995
G1 X141.298 Y99.6 E394.53987
G1 X141.298 Y70.501 E395.99163
G0 X125.302 Y70.501
G1 X125.302 Y99.6 E397.44338
G1 F600 E391.44338
G0 F4800 X122.899 Y99.6
G1 F600 E397.44338
G1 F4800 X122.899 Y70.501 E398.89514
G1 X125.302 Y70.501 E399.01502
G1 F600 E393.01502
G0 F4800 X125.302 Y99.835
G0 X125.302 Y101.14
G0 X146.83 Y101.17
G0 X146.9 Y101.1
;TYPE:WALL-INNER
G1 F600 E399.01502
G1 F3600 X146.9 Y109.9 E399.45406
G1 X128.4 Y109.9 E400.37703
G1 X128.4 Y123.9 E401.07549
G1 X128.4 Y124.1 E401.08547
G1 X128.6 Y124.1 E401.09193
G1 X145.2 Y124.099 E401.92011
G1 X145.4 Y124.099 E401.93008
G1 X145.4 Y124.299 E401.93654
G1 X145.4 Y128.899 E402.16604
G1 X122.6 Y128.899 E403.30354
G1 X122.6 Y109.9 E404.2514
G1 X77.4 Y109.9 E406.50644
G1 X77.4 Y128.899 E407.4543
G1 X54.6 Y128.899 E408.5918
G1 X54.6 Y124.099 E408.83127
G1 X71.6 Y124.099 E409.6794
G1 X71.6 Y109.9 E410.38779
G1 X53.1 Y109.9 E411.31076
G1 X53.1 Y101.1 E411.7498
G1 X146.9 Y101.1 E416.4295
G0 F4800 X147.3 Y100.7
;TYPE:WALL-OUTER
G1 F3000 X147.3 Y110.3 E416.90844
G1 X128.8 Y110.3 E417.83141
G1 X128.8 Y123.5 E418.48996
G1 X128.8 Y123.7 E418.49994
G1 X129 Y123.7 E418.5064
G1 X145.6 Y123.699 E419.33458
G1 X145.8 Y123.699 E419.34456
G1 X145.8 Y123.899 E419.35102
G1 X145.8 Y129.299 E419.62043
G1 X122.2 Y129.299 E420.79783
G1 X122.2 Y110.3 E421.7457
G1 X77.8 Y110.3 E423.96082
G1 X77.8 Y129.299 E424.90869
G1 X54.2 Y129.299 E426.0861
G1 X54.2 Y123.699 E426.36548
G1 X71.2 Y123.699 E427.21361
G1 X71.2 Y110.3 E427.88209
G1 X52.7 Y110.3 E428.80506
G1 X52.7 Y100.7 E429.28401
G1 X147.3 Y100.7 E434.00362
G0 F4800 X146.83 Y101.17
G0 X146.719 Y101.464
;TYPE:SKIN
G1 F2400 X146.535 Y101.28 E434.0166
G0 F4800 X145.969 Y101.28
G1 F2400 X146.719 Y102.029 E434.06949
G0 X146.789 Y102.099
G0 F4800 X146.719 Y102.595
G1 F2400 X145.403 Y101.28 E434.1623
G0 X145.333 Y101.21
G0 F4800 X144.838 Y101.28
G1 F2400 X146.719 Y103.161 E434.29502
G0 X146.789 Y103.231
G0 F4800 X146.719 Y103.726
G1 F2400 X144.272 Y101.28 E434.46763
G0 X144.202 Y101.21
G0 F4800 X143.706 Y101.28
G1 F2400 X146.719 Y104.292 E434.68018
G0 X146.789 Y104.362
G0 F4800 X146.719 Y104.858
G1 F2400 X143.141 Y101.28 E434.93262
G0 X143.071 Y101.21
G0 F4800 X142.575 Y101.28
G1 F2400 X146.719 Y105.423 E435.22497
G0 X146.789 Y105.493
G0 F4800 X146.719 Y105.989
G1 F2400 X142.009 Y101.28 E435.55725
G0 X141.939 Y101.21
G0 F4800 X141.443 Y101.28
G1 F2400 X146.719 Y106.555 E435.92947
G0 X146.789 Y106.625
G0 F4800 X146.719 Y107.121
G1 F2400 X140.878 Y101.28 E436.34158
G0 X140.808 Y101.21
G0 F4800 X140.312 Y101.28
G1 F2400 X146.719 Y107.686 E436.79359
G0 X146.789 Y107.756
G0 F4800 X146.719 Y108.252
G1 F2400 X139.746 Y101.28 E437.28554
G0 X139.676 Y101.21
G0 F4800 X139.181 Y101.28
G1 F2400 X146.719 Y108.818 E437.81739
G0 X146.789 Y108.888
G0 F4800 X146.719 Y109.383
G1 F2400 X138.615 Y101.28 E438.38913
G0 X138.545 Y101.21
G0 F4800 X138.049 Y101.28
G1 F2400 X146.489 Y109.719 E438.98459
G0 X146.559 Y109.789
G0 F4800 X145.923 Y109.719
G1 F2400 X137.484 Y101.28 E439.58
G0 X137.414 Y101.21
G0 F4800 X136.918 Y101.28
G1 F2400 X145.357 Y109.719 E440.17542
G0 X145.427 Y109.789
G0 F4800 X144.792 Y109.719
G1 F2400 X136.352 Y101.28 E440.77087
G0 X136.282 Y101.21
G0 F4800 X135.787 Y101.28
G1 F2400 X144.226 Y109.719 E441.36629
G0 X144.296 Y109.789
G0 F4800 X143.66 Y109.719
G1 F2400 X135.221 Y101.28 E441.96171
G0 X135.151 Y101.21
G0 F4800 X134.655 Y101.28
G1 F2400 X143.095 Y109.719 E442.55716
G0 X143.165 Y109.789
G0 F4800 X142.529 Y109.719
G1 F2400 X134.09 Y101.28 E443.15258
G0 X134.02 Y101.21
G0 F4800 X133.524 Y101.28
G1 F2400 X141.963 Y109.719 E443.74799
G0 X142.033 Y109.789
G0 F4800 X141.398 Y109.719
G1 F2400 X132.958 Y101.28 E444.34345
G0 X132.888 Y101.21
G0 F4800 X132.393 Y101.28
G1 F2400 X140.832 Y109.719 E444.93886
G0 X140.902 Y109.789
G0 F4800 X140.266 Y109.719
G1 F2400 X131.827 Y101.28 E445.53428
G0 X131.757 Y101.21
G0 F4800 X131.261 Y101.28
G1 F2400 X139.7 Y109.719 E446.1297
G0 X139.77 Y109.789
G0 F4800 X139.135 Y109.719
G1 F2400 X130.695 Y101.28 E446.72515
G0 X130.625 Y101.21
G0 F4800 X130.13 Y101.28
G1 F2400 X138.569 Y109.719 E447.32057
G0 X138.639 Y109.789
G0 F4800 X138.003 Y109.719
G1 F2400 X129.564 Y101.28 E447.91598
G0 X129.494 Y101.21
G0 F4800 X128.998 Y101.28
G1 F2400 X137.438 Y109.719 E448.51143
G0 X137.508 Y109.789
G0 F4800 X136.872 Y109.719
G1 F2400 X128.433 Y101.28 E449.10685
G0 X128.363 Y101.21
G0 F4800 X127.867 Y101.28
G1 F2400 X136.306 Y109.719 E449.70227
G0 X136.376 Y109.789
G0 F4800 X135.741 Y109.719
G1 F2400 X127.301 Y101.28 E450.29772
G0 X127.231 Y101.21
G0 F4800 X126.736 Y101.28
G1 F2400 X135.175 Y109.719 E450.89314
G0 X135.245 Y109.789
G0 F4800 X134.609 Y109.719
G1 F2400 X126.17 Y101.28 E451.48856
G0 X126.1 Y101.21
G0 F4800 X125.604 Y101.28
G1 F2400 X134.044 Y109.719 E452.08401
G0 X134.114 Y109.789
G0 F4800 X133.478 Y109.719
G1 F2400 X125.039 Y101.28 E452.67942
G0 X124.969 Y101.21
G0 F4800 X124.473 Y101.28
G1 F2400 X132.912 Y109.719 E453.27484
G0 X132.982 Y109.789
G0 F4800 X132.347 Y109.719
G1 F2400 X123.907 Y101.28 E453.87029
G0 X123.837 Y101.21
G0 F4800 X123.342 Y101.28
G1 F2400 X131.781 Y109.719 E454.46571
G0 X131.851 Y109.789
G0 F4800 X131.215 Y109.719
G1 F2400 X122.776 Y101.28 E455.06113
G0 X122.706 Y101.21
G0 F4800 X122.21 Y101.28
G1 F2400 X130.649 Y109.719 E455.65655
G0 X130.719 Y109.789
G0 F4800 X130.084 Y109.719
G1 F2400 X121.644 Y101.28 E456.252
G0 X121.574 Y101.21
G0 F4800 X121.079 Y101.28
G1 F2400 X129.518 Y109.719 E456.84741
G0 X129.588 Y109.789
G0 F4800 X128.952 Y109.719
G1 F2400 X120.513 Y101.28 E457.44283
G0 X120.443 Y101.21
G0 F4800 X119.947 Y101.28
G1 F2400 X128.387 Y109.719 E458.03828
G0 X128.457 Y109.789
G0 F4800 X128.219 Y110.117
G1 F2400 X119.382 Y101.28 E458.66178
G0 X119.312 Y101.21
G0 F4800 X118.816 Y101.28
G1 F2400 X128.219 Y110.683 E459.32521
G0 X128.289 Y110.753
G0 F4800 X128.219 Y111.249
G1 F2400 X118.25 Y101.28 E460.02858
G0 X118.18 Y101.21
G0 F4800 X117.685 Y101.28
G1 F2400 X128.219 Y111.814 E460.77181
G0 X128.289 Y111.884
G0 F4800 X128.219 Y112.38
G1 F2400 X117.119 Y101.28 E461.55498
G0 X117.049 Y101.21
G0 F4800 X116.553 Y101.28
G1 F2400 X128.219 Y112.946 E462.37808
G0 X128.289 Y113.016
G0 F4800 X128.219 Y113.511
G1 F2400 X115.988 Y101.28 E463.24104
G0 X115.918 Y101.21
G0 F4800 X115.422 Y101.28
G1 F2400 X128.219 Y114.077 E464.14394
G0 X128.289 Y114.147
G0 F4800 X128.219 Y114.643
G1 F2400 X114.856 Y101.28 E465.08677
G0 X114.786 Y101.21
G0 F4800 X114.291 Y101.28
G1 F2400 X122.73 Y109.719 E465.68219
G0 X122.8 Y109.789
G0 F4800 X122.779 Y109.768
G1 F2400 X128.219 Y115.208 E466.06601
G0 X128.289 Y115.278
G0 F4800 X128.219 Y115.774
G1 F2400 X122.779 Y110.334 E466.44983
G0 X122.709 Y110.264
G0 F4800 X122.779 Y110.899
G1 F2400 X128.219 Y116.34 E466.83368
G0 X128.289 Y116.41
G0 F4800 X128.219 Y116.905
G1 F2400 X122.779 Y111.465 E467.21751
G0 X122.709 Y111.395
G0 F4800 X122.779 Y112.031
G1 F2400 X128.219 Y117.471 E467.60133
G0 X128.289 Y117.541
G0 F4800 X128.219 Y118.037
G1 F2400 X122.779 Y112.596 E467.98518
G0 X122.709 Y112.526
G0 F4800 X122.779 Y113.162
G1 F2400 X128.219 Y118.603 E468.36904
G0 X128.289 Y118.673
G0 F4800 X128.219 Y119.168
G1 F2400 X122.779 Y113.728 E468.75286
G0 X122.709 Y113.658
G0 F4800 X122.779 Y114.293
G1 F2400 X128.219 Y119.734 E469.13672
G0 X128.289 Y119.804
G0 F4800 X128.219 Y120.3
G1 F2400 X122.779 Y114.859 E469.52058
G0 X122.709 Y114.789
G0 F4800 X122.779 Y115.425
G1 F2400 X128.219 Y120.865 E469.9044
G0 X128.289 Y120.935
G0 F4800 X128.219 Y121.431
G1 F2400 X122.779 Y115.99 E470.28825
G0 X122.709 Y115.92
G0 F4800 X122.779 Y116.556
G1 F2400 X128.219 Y121.997 E470.67211
G0 X128.289 Y122.067
G0 F4800 X128.219 Y122.562
G1 F2400 X122.779 Y117.122 E471.05593
G0 X122.709 Y117.052
G0 F4800 X122.779 Y117.688
G1 F2400 X128.219 Y123.128 E471.43975
G0 X128.289 Y123.198
G0 F4800 X128.219 Y123.694
G1 F2400 X122.779 Y118.253 E471.82361
G0 X122.709 Y118.183
G0 F4800 X122.779 Y118.819
G1 F2400 X128.219 Y124.259 E472.20743
G0 X128.289 Y124.329
G0 F4800 X128.239 Y124.279
G1 F2400 X132.677 Y128.718 E472.52059
G0 X132.747 Y128.788
G0 F4800 X132.112 Y128.718
G1 F2400 X122.779 Y119.385 E473.17908
G0 X122.709 Y119.315
G0 F4800 X122.779 Y119.95
G1 F2400 X131.546 Y128.718 E473.79768
G0 X131.616 Y128.788
G0 F4800 X130.98 Y128.718
G1 F2400 X122.779 Y120.516 E474.37634
G0 X122.709 Y120.446
G0 F4800 X122.779 Y121.082
G1 F2400 X130.415 Y128.718 E474.9151
G0 X130.485 Y128.788
G0 F4800 X129.849 Y128.718
G1 F2400 X122.779 Y121.647 E475.41396
G0 X122.709 Y121.577
G0 F4800 X122.779 Y122.213
G1 F2400 X129.283 Y128.718 E475.87289
G0 X129.353 Y128.788
G0 F4800 X128.718 Y128.718
G1 F2400 X122.779 Y122.779 E476.29192
G0 X122.709 Y122.709
G0 F4800 X122.779 Y123.344
G1 F2400 X128.152 Y128.718 E476.67105
G0 X128.222 Y128.788
G0 F4800 X127.586 Y128.718
G1 F2400 X122.779 Y123.91 E477.01024
G0 X122.709 Y123.84
G0 F4800 X122.779 Y124.476
G1 F2400 X127.021 Y128.718 E477.30954
G0 X127.091 Y128.788
G0 F4800 X126.455 Y128.718
G1 F2400 X122.779 Y125.041 E477.56894
G0 X122.709 Y124.971
G0 F4800 X122.779 Y125.607
G1 F2400 X125.889 Y128.718 E477.7884
G0 X125.959 Y128.788
G0 F4800 X125.324 Y128.718
G1 F2400 X122.779 Y126.173 E477.96796
G0 X122.709 Y126.103
G0 F4800 X122.779 Y126.738
G1 F2400 X124.758 Y128.718 E478.10763
G0 X124.828 Y128.788
G0 F4800 X124.192 Y128.718
G1 F2400 X122.779 Y127.304 E478.20736
G0 X122.709 Y127.234
G0 F4800 X122.779 Y127.87
G1 F2400 X123.627 Y128.718 E478.26719
G0 X123.697 Y128.788
G0 F4800 X123.061 Y128.718
G1 F2400 X122.779 Y128.436 E478.28708
G0 F4800 X128.805 Y124.279
G1 F2400 X133.243 Y128.718 E478.60024
G0 X133.313 Y128.788
G0 F4800 X133.809 Y128.718
G1 F2400 X129.37 Y124.279 E478.91344
G0 X129.3 Y124.209
G0 F4800 X129.936 Y124.279
G1 F2400 X134.375 Y128.718 E479.22664
G0 X134.445 Y128.788
G0 F4800 X134.941 Y128.718
G1 F2400 X130.502 Y124.279 E479.53983
G0 X130.432 Y124.209
G0 F4800 X131.067 Y124.279
G1 F2400 X135.507 Y128.718 E479.85306
G0 X135.577 Y128.788
G0 F4800 X136.072 Y128.718
G1 F2400 X131.633 Y124.279 E480.16626
G0 X131.563 Y124.209
G0 F4800 X132.199 Y124.279
G1 F2400 X136.638 Y128.718 E480.47945
G0 X136.708 Y128.788
G0 F4800 X137.204 Y128.718
G1 F2400 X132.764 Y124.279 E480.79268
G0 X132.694 Y124.209
G0 F4800 X133.33 Y124.279
G1 F2400 X137.769 Y128.718 E481.10588
G0 X137.839 Y128.788
G0 F4800 X138.335 Y128.718
G1 F2400 X133.896 Y124.279 E481.41907
G0 X133.826 Y124.209
G0 F4800 X134.462 Y124.279
G1 F2400 X138.901 Y128.718 E481.73227
G0 X138.971 Y128.788
G0 F4800 X139.466 Y128.718
G1 F2400 X135.027 Y124.279 E482.04546
G0 X134.957 Y124.209
G0 F4800 X135.593 Y124.279
G1 F2400 X140.032 Y128.718 E482.35866
G0 X140.102 Y128.788
G0 F4800 X140.598 Y128.718
G1 F2400 X136.159 Y124.279 E482.67186
G0 X136.089 Y124.209
G0 F4800 X136.724 Y124.279
G1 F2400 X141.163 Y128.718 E482.98505
G0 X141.233 Y128.788
G0 F4800 X141.729 Y128.718
G1 F2400 X137.29 Y124.279 E483.29825
G0 X137.22 Y124.209
G0 F4800 X137.856 Y124.279
G1 F2400 X142.295 Y128.718 E483.61144
G0 X142.365 Y128.788
G0 F4800 X142.861 Y128.718
G1 F2400 X138.421 Y124.279 E483.92467
G0 X138.351 Y124.209
G0 F4800 X138.987 Y124.279
G1 F2400 X143.426 Y128.718 E484.23787
G0 X143.496 Y128.788
G0 F4800 X143.992 Y128.718
G1 F2400 X139.553 Y124.279 E484.55106
G0 X139.483 Y124.209
G0 F4800 X140.118 Y124.279
G1 F2400 X144.558 Y128.718 E484.86429
G0 X144.628 Y128.788
G0 F4800 X145.123 Y128.718
G1 F2400 X140.684 Y124.279 E485.17749
G0 X140.614 Y124.209
G0 F4800 X141.25 Y124.279
G1 F2400 X145.219 Y128.248 E485.45752
G0 X145.289 Y128.318
G0 F4800 X145.219 Y127.682
G1 F2400 X141.815 Y124.279 E485.69766
G0 X141.745 Y124.209
G0 F4800 X142.381 Y124.279
G1 F2400 X145.219 Y127.117 E485.8979
G0 X145.289 Y127.187
G0 F4800 X145.219 Y126.551
G1 F2400 X142.947 Y124.279 E486.0582
G0 X142.877 Y124.209
G0 F4800 X143.512 Y124.279
G1 F2400 X145.219 Y125.985 E486.1786
G0 X145.289 Y126.055
G0 F4800 X145.219 Y125.42
G1 F2400 X144.078 Y124.279 E486.2591
G0 X144.008 Y124.209
G0 F4800 X144.644 Y124.279
G1 F2400 X145.219 Y124.854 E486.29967
G0 X145.289 Y124.924
G0 F4800 X122.628 Y128.871
G0 X122.628 Y109.872
G0 X122.164 Y109.719
G1 F2400 X113.725 Y101.28 E486.89509
G0 X113.655 Y101.21
G0 F4800 X113.159 Y101.28
G1 F2400 X121.599 Y109.719 E487.49054
G0 X121.669 Y109.789
G0 F4800 X121.033 Y109.719
G1 F2400 X112.594 Y101.28 E488.08596
G0 X112.524 Y101.21
G0 F4800 X112.028 Y101.28
G1 F2400 X120.467 Y109.719 E488.68138
G0 X120.537 Y109.789
G0 F4800 X119.901 Y109.719
G1 F2400 X111.462 Y101.28 E489.27679
G0 X111.392 Y101.21
G0 F4800 X110.896 Y101.28
G1 F2400 X119.336 Y109.719 E489.87225
G0 X119.406 Y109.789
G0 F4800 X118.77 Y109.719
G1 F2400 X110.331 Y101.28 E490.46766
G0 X110.261 Y101.21
G0 F4800 X109.765 Y101.28
G1 F2400 X118.204 Y109.719 E491.06308
G0 X118.274 Y109.789
G0 F4800 X117.639 Y109.719
G1 F2400 X109.199 Y101.28 E491.65853
G0 X109.129 Y101.21
G0 F4800 X108.634 Y101.28
G1 F2400 X117.073 Y109.719 E492.25395
G0 X117.143 Y109.789
G0 F4800 X116.507 Y109.719
G1 F2400 X108.068 Y101.28 E492.84937
G0 X107.998 Y101.21
G0 F4800 X107.502 Y101.28
G1 F2400 X115.942 Y109.719 E493.44482
G0 X116.012 Y109.789
G0 F4800 X115.376 Y109.719
G1 F2400 X106.937 Y101.28 E494.04024
G0 X106.867 Y101.21
G0 F4800 X106.371 Y101.28
G1 F2400 X114.81 Y109.719 E494.63565
G0 X114.88 Y109.789
G0 F4800 X114.245 Y109.719
G1 F2400 X105.805 Y101.28 E495.2311
G0 X105.735 Y101.21
G0 F4800 X105.24 Y101.28
G1 F2400 X113.679 Y109.719 E495.82652
G0 X113.749 Y109.789
G0 F4800 X113.113 Y109.719
G1 F2400 X104.674 Y101.28 E496.42194
G0 X104.604 Y101.21
G0 F4800 X104.108 Y101.28
G1 F2400 X112.548 Y109.719 E497.01739
G0 X112.618 Y109.789
G0 F4800 X111.982 Y109.719
G1 F2400 X103.543 Y101.28 E497.61281
G0 X103.473 Y101.21
G0 F4800 X102.977 Y101.28
G1 F2400 X111.416 Y109.719 E498.20823
G0 X111.486 Y109.789
G0 F4800 X110.851 Y109.719
G1 F2400 X102.411 Y101.28 E498.80368
G0 X102.341 Y101.21
G0 F4800 X101.846 Y101.28
G1 F2400 X110.285 Y109.719 E499.39909
G0 X110.355 Y109.789
G0 F4800 X109.719 Y109.719
G1 F2400 X101.28 Y101.28 E499.99451
G0 X101.21 Y101.21
G0 F4800 X100.714 Y101.28
G1 F2400 X109.153 Y109.719 E500.58993
G0 X109.223 Y109.789
G0 F4800 X108.588 Y109.719
G1 F2400 X100.148 Y101.28 E501.18538
G0 X100.078 Y101.21
G0 F4800 X99.583 Y101.28
G1 F2400 X108.022 Y109.719 E501.7808
G0 X108.092 Y109.789
G0 F4800 X107.456 Y109.719
G1 F2400 X99.017 Y101.28 E502.37622
G0 X98.947 Y101.21
G0 F4800 X98.451 Y101.28
G1 F2400 X106.891 Y109.719 E502.97167
G0 X106.961 Y109.789
G0 F4800 X106.325 Y109.719
G1 F2400 X97.886 Y101.28 E503.56708
G0 X97.816 Y101.21
G0 F4800 X97.32 Y101.28
G1 F2400 X105.759 Y109.719 E504.1625
G0 X105.829 Y109.789
G0 F4800 X105.194 Y109.719
G1 F2400 X96.754 Y101.28 E504.75795
G0 X96.684 Y101.21
G0 F4800 X96.189 Y101.28
G1 F2400 X104.628 Y109.719 E505.35337
G0 X104.698 Y109.789
G0 F4800 X104.062 Y109.719
G1 F2400 X95.623 Y101.28 E505.94879
G0 X95.553 Y101.21
G0 F4800 X95.057 Y101.28
G1 F2400 X103.497 Y109.719 E506.54424
G0 X103.567 Y109.789
G0 F4800 X102.931 Y109.719
G1 F2400 X94.492 Y101.28 E507.13966
G0 X94.422 Y101.21
G0 F4800 X93.926 Y101.28
G1 F2400 X102.365 Y109.719 E507.73507
G0 X102.435 Y109.789
G0 F4800 X101.8 Y109.719
G1 F2400 X93.36 Y101.28 E508.33053
G0 X93.29 Y101.21
G0 F4800 X92.795 Y101.28
G1 F2400 X101.234 Y109.719 E508.92594
G0 X101.304 Y109.789
G0 F4800 X100.668 Y109.719
G1 F2400 X92.229 Y101.28 E509.52136
G0 X92.159 Y101.21
G0 F4800 X91.663 Y101.28
G1 F2400 X100.102 Y109.719 E510.11678
G0 X100.172 Y109.789
G0 F4800 X99.536 Y109.718
G1 F2400 X91.097 Y101.28 E510.71216
G0 X91.027 Y101.21
G0 F4800 X90.532 Y101.28
G1 F2400 X98.97 Y109.718 E511.30751
G0 X99.04 Y109.788
G0 F4800 X98.405 Y109.718
G1 F2400 X89.966 Y101.28 E511.90289
G0 X89.896 Y101.21
G0 F4800 X89.4 Y101.28
G1 F2400 X97.839 Y109.718 E512.49827
G0 X97.909 Y109.788
G0 F4800 X97.273 Y109.718
G1 F2400 X88.835 Y101.28 E513.09362
G0 X88.765 Y101.21
G0 F4800 X88.269 Y101.28
G1 F2400 X96.708 Y109.718 E513.689
G0 X96.778 Y109.788
G0 F4800 X96.142 Y109.718
G1 F2400 X87.703 Y101.28 E514.28438
G0 X87.633 Y101.21
G0 F4800 X87.138 Y101.28
G1 F2400 X95.576 Y109.718 E514.87973
G0 X95.646 Y109.788
G0 F4800 X95.011 Y109.718
G1 F2400 X86.572 Y101.28 E515.47511
G0 X86.502 Y101.21
G0 F4800 X86.006 Y101.28
G1 F2400 X94.445 Y109.718 E516.07049
G0 X94.515 Y109.788
G0 F4800 X93.879 Y109.718
G1 F2400 X85.441 Y101.28 E516.66584
G0 X85.371 Y101.21
G0 F4800 X84.875 Y101.28
G1 F2400 X93.314 Y109.718 E517.26122
G0 X93.384 Y109.788
G0 F4800 X92.748 Y109.718
G1 F2400 X84.309 Y101.28 E517.8566
G0 X84.239 Y101.21
G0 F4800 X83.744 Y101.28
G1 F2400 X92.182 Y109.718 E518.45195
G0 X92.252 Y109.788
G0 F4800 X91.616 Y109.718
G1 F2400 X83.178 Y101.28 E519.04729
G0 X83.108 Y101.21
G0 F4800 X82.612 Y101.28
G1 F2400 X91.051 Y109.718 E519.64267
G0 X91.121 Y109.788
G0 F4800 X90.485 Y109.718
G1 F2400 X82.047 Y101.28 E520.23802
G0 X81.977 Y101.21
G0 F4800 X81.481 Y101.28
G1 F2400 X89.919 Y109.718 E520.83337
G0 X89.989 Y109.788
G0 F4800 X89.354 Y109.718
G1 F2400 X80.915 Y101.28 E521.42875
G0 X80.845 Y101.21
G0 F4800 X80.349 Y101.28
G1 F2400 X88.788 Y109.718 E522.02413
G0 X88.858 Y109.788
G0 F4800 X88.222 Y109.718
G1 F2400 X79.784 Y101.28 E522.61948
G0 X79.714 Y101.21
G0 F4800 X79.218 Y101.28
G1 F2400 X87.657 Y109.718 E523.21486
G0 X87.727 Y109.788
G0 F4800 X87.091 Y109.718
G1 F2400 X78.652 Y101.28 E523.81024
G0 X78.582 Y101.21
G0 F4800 X78.087 Y101.28
G1 F2400 X86.525 Y109.718 E524.40559
G0 X86.595 Y109.788
G0 F4800 X85.96 Y109.718
G1 F2400 X77.521 Y101.28 E525.00097
G0 X77.451 Y101.21
G0 F4800 X76.955 Y101.28
G1 F2400 X85.394 Y109.718 E525.59635
G0 X85.464 Y109.788
G0 F4800 X84.828 Y109.718
G1 F2400 X76.39 Y101.28 E526.1917
G0 X76.32 Y101.21
G0 F4800 X75.824 Y101.28
G1 F2400 X84.263 Y109.718 E526.78708
G0 X84.333 Y109.788
G0 F4800 X83.697 Y109.718
G1 F2400 X75.258 Y101.28 E527.38246
G0 X75.188 Y101.21
G0 F4800 X74.693 Y101.28
G1 F2400 X83.131 Y109.718 E527.97781
G0 X83.201 Y109.788
G0 F4800 X82.566 Y109.718
G1 F2400 X74.127 Y101.28 E528.57319
G0 X74.057 Y101.21
G0 F4800 X73.561 Y101.28
G1 F2400 X82 Y109.718 E529.16857
G0 X82.07 Y109.788
G0 F4800 X81.434 Y109.718
G1 F2400 X72.996 Y101.28 E529.76392
G0 X72.926 Y101.21
G0 F4800 X72.43 Y101.28
G1 F2400 X80.868 Y109.718 E530.35926
G0 X80.938 Y109.788
G0 F4800 X80.303 Y109.718
G1 F2400 X71.864 Y101.28 E530.95465
G0 X71.794 Y101.21
G0 F4800 X71.298 Y101.28
G1 F2400 X79.737 Y109.718 E531.55003
G0 X79.807 Y109.788
G0 F4800 X79.171 Y109.718
G1 F2400 X70.733 Y101.28 E532.14537
G0 X70.663 Y101.21
G0 F4800 X70.167 Y101.28
G1 F2400 X78.606 Y109.718 E532.74076
G0 X78.676 Y109.788
G0 F4800 X78.04 Y109.718
G1 F2400 X69.601 Y101.28 E533.33614
G0 X69.531 Y101.21
G0 F4800 X69.036 Y101.28
G1 F2400 X77.474 Y109.718 E533.93148
G0 X77.544 Y109.788
G0 F4800 X77.22 Y110.03
G1 F2400 X68.47 Y101.28 E534.54884
G0 X68.4 Y101.21
G0 F4800 X67.904 Y101.28
G1 F2400 X77.22 Y110.595 E535.2061
G0 X77.29 Y110.665
G0 F4800 X77.22 Y111.161
G1 F2400 X67.339 Y101.28 E535.90326
G0 X67.269 Y101.21
G0 F4800 X66.773 Y101.28
G1 F2400 X77.22 Y111.727 E536.64035
G0 X77.29 Y111.797
G0 F4800 X77.22 Y112.292
G1 F2400 X66.207 Y101.28 E537.41734
G0 X66.137 Y101.21
G0 F4800 X65.642 Y101.28
G1 F2400 X77.22 Y112.858 E538.23423
G0 X77.29 Y112.928
G0 F4800 X77.22 Y113.424
G1 F2400 X65.076 Y101.28 E539.09106
G0 X65.006 Y101.21
G0 F4800 X64.51 Y101.28
G1 F2400 X77.22 Y113.989 E539.98778
G0 X77.29 Y114.059
G0 F4800 X77.22 Y114.555
G1 F2400 X63.945 Y101.28 E540.92441
G0 X63.875 Y101.21
G0 F4800 X63.379 Y101.28
G1 F2400 X77.22 Y115.121 E541.90096
G0 X77.29 Y115.191
G0 F4800 X77.22 Y115.686
G1 F2400 X71.779 Y110.246 E542.28482
G0 X71.709 Y110.176
G0 F4800 X71.779 Y110.812
G1 F2400 X77.22 Y116.252 E542.66868
G0 X77.29 Y116.322
G0 F4800 X77.22 Y116.818
G1 F2400 X71.779 Y111.377 E543.05257
G0 X71.709 Y111.307
G0 F4800 X71.779 Y111.943
G1 F2400 X77.22 Y117.383 E543.43642
G0 X77.29 Y117.453
G0 F4800 X77.22 Y117.949
G1 F2400 X71.779 Y112.509 E543.82028
G0 X71.709 Y112.439
G0 F4800 X71.779 Y113.074
G1 F2400 X77.22 Y118.515 E544.20417
G0 X77.29 Y118.585
G0 F4800 X77.22 Y119.081
G1 F2400 X71.779 Y113.64 E544.58807
G0 X71.709 Y113.57
G0 F4800 X71.779 Y114.206
G1 F2400 X77.22 Y119.646 E544.97192
G0 X77.29 Y119.716
G0 F4800 X77.22 Y120.212
G1 F2400 X71.779 Y114.771 E545.35581
G0 X71.709 Y114.701
G0 F4800 X71.779 Y115.337
G1 F2400 X77.22 Y120.778 E545.73971
G0 X77.29 Y120.848
G0 F4800 X77.22 Y121.343
G1 F2400 X71.779 Y115.903 E546.12356
G0 X71.709 Y115.833
G0 F4800 X71.779 Y116.468
G1 F2400 X77.22 Y121.909 E546.50745
G0 X77.29 Y121.979
G0 F4800 X77.22 Y122.475
G1 F2400 X71.779 Y117.034 E546.89135
G0 X71.709 Y116.964
G0 F4800 X71.779 Y117.6
G1 F2400 X77.22 Y123.04 E547.2752
G0 X77.29 Y123.11
G0 F4800 X77.22 Y123.606
G1 F2400 X71.779 Y118.166 E547.65906
G0 X71.709 Y118.096
G0 F4800 X71.779 Y118.731
G1 F2400 X77.22 Y124.172 E548.04295
G0 X77.29 Y124.242
G0 F4800 X77.22 Y124.737
G1 F2400 X71.779 Y119.297 E548.42681
G0 X71.709 Y119.227
G0 F4800 X71.779 Y119.863
G1 F2400 X77.22 Y125.303 E548.81066
G0 X77.29 Y125.373
G0 F4800 X77.22 Y125.869
G1 F2400 X71.779 Y120.428 E549.19456
G0 X71.709 Y120.358
G0 F4800 X71.779 Y120.994
G1 F2400 X77.22 Y126.434 E549.57841
G0 X77.29 Y126.504
G0 F4800 X77.22 Y127
G1 F2400 X71.779 Y121.56 E549.96227
G0 X71.709 Y121.49
G0 F4800 X71.779 Y122.125
G1 F2400 X77.22 Y127.566 E550.34616
G0 X77.29 Y127.636
G0 F4800 X77.22 Y128.131
G1 F2400 X71.779 Y122.691 E550.73002
G0 X71.709 Y122.621
G0 F4800 X71.779 Y123.257
G1 F2400 X77.22 Y128.697 E551.11388
G0 X77.29 Y128.767
G0 F4800 X76.675 Y128.718
G1 F2400 X71.779 Y123.822 E551.45931
G0 X71.709 Y123.752
G0 F4800 X71.669 Y124.278
G1 F2400 X76.109 Y128.718 E551.77258
G0 X76.179 Y128.788
G0 F4800 X75.543 Y128.718
G1 F2400 X71.103 Y124.278 E552.08585
G0 X71.033 Y124.208
G0 F4800 X70.538 Y124.278
G1 F2400 X74.978 Y128.718 E552.39911
G0 X75.048 Y128.788
G0 F4800 X74.412 Y128.718
G1 F2400 X69.972 Y124.278 E552.71238
G0 X69.902 Y124.208
G0 F4800 X69.406 Y124.278
G1 F2400 X73.846 Y128.718 E553.02564
G0 X73.916 Y128.788
G0 F4800 X73.281 Y128.718
G1 F2400 X68.841 Y124.278 E553.33891
G0 X68.771 Y124.208
G0 F4800 X68.275 Y124.278
G1 F2400 X72.715 Y128.718 E553.65218
G0 X72.785 Y128.788
G0 F4800 X72.149 Y128.718
G1 F2400 X67.709 Y124.278 E553.96544
G0 X67.639 Y124.208
G0 F4800 X67.144 Y124.278
G1 F2400 X71.583 Y128.718 E554.27867
G0 X71.653 Y128.788
G0 F4800 X71.018 Y128.718
G1 F2400 X66.578 Y124.278 E554.59194
G0 X66.508 Y124.208
G0 F4800 X66.012 Y124.278
G1 F2400 X70.452 Y128.718 E554.90521
G0 X70.522 Y128.788
G0 F4800 X69.886 Y128.718
G1 F2400 X65.446 Y124.278 E555.21847
G0 X65.376 Y124.208
G0 F4800 X64.881 Y124.278
G1 F2400 X69.321 Y128.718 E555.53174
G0 X69.391 Y128.788
G0 F4800 X68.755 Y128.718
G1 F2400 X64.315 Y124.278 E555.845
G0 X64.245 Y124.208
G0 F4800 X63.749 Y124.278
G1 F2400 X68.189 Y128.718 E556.15827
G0 X68.259 Y128.788
G0 F4800 X67.624 Y128.718
G1 F2400 X63.184 Y124.278 E556.47154
G0 X63.114 Y124.208
G0 F4800 X62.618 Y124.278
G1 F2400 X67.058 Y128.718 E556.7848
G0 X67.128 Y128.788
G0 F4800 X66.492 Y128.718
G1 F2400 X62.052 Y124.278 E557.09807
G0 X61.982 Y124.208
G0 F4800 X61.487 Y124.278
G1 F2400 X65.927 Y128.718 E557.41133
G0 X65.997 Y128.788
G0 F4800 X65.361 Y128.718
G1 F2400 X60.921 Y124.278 E557.7246
G0 X60.851 Y124.208
G0 F4800 X60.355 Y124.278
G1 F2400 X64.795 Y128.718 E558.03786
G0 X64.865 Y128.788
G0 F4800 X64.23 Y128.718
G1 F2400 X59.79 Y124.278 E558.35113
G0 X59.72 Y124.208
G0 F4800 X59.224 Y124.278
G1 F2400 X63.664 Y128.718 E558.6644
G0 X63.734 Y128.788
G0 F4800 X63.098 Y128.718
G1 F2400 X58.658 Y124.278 E558.97766
G0 X58.588 Y124.208
G0 F4800 X58.093 Y124.278
G1 F2400 X62.532 Y128.718 E559.29089
G0 X62.602 Y128.788
G0 F4800 X61.967 Y128.718
G1 F2400 X57.527 Y124.278 E559.60416
G0 X57.457 Y124.208
G0 F4800 X56.961 Y124.278
G1 F2400 X61.401 Y128.718 E559.91743
G0 X61.471 Y128.788
G0 F4800 X60.835 Y128.718
G1 F2400 X56.396 Y124.278 E560.23066
G0 X56.326 Y124.208
G0 F4800 X55.83 Y124.278
G1 F2400 X60.27 Y128.718 E560.54392
G0 X60.34 Y128.788
G0 F4800 X59.704 Y128.718
G1 F2400 X55.264 Y124.278 E560.85719
G0 X55.194 Y124.208
G0 F4800 X54.779 Y124.358
G1 F2400 X59.138 Y128.718 E561.16477
G0 X59.208 Y128.788
G0 F4800 X58.573 Y128.718
G1 F2400 X54.779 Y124.924 E561.43246
G0 X54.709 Y124.854
G0 F4800 X54.779 Y125.49
G1 F2400 X58.007 Y128.718 E561.66021
G0 X58.077 Y128.788
G0 F4800 X57.441 Y128.718
G1 F2400 X54.779 Y126.055 E561.84807
G0 X54.709 Y125.985
G0 F4800 X54.779 Y126.621
G1 F2400 X56.876 Y128.718 E561.99602
G0 X56.946 Y128.788
G0 F4800 X56.31 Y128.718
G1 F2400 X54.779 Y127.187 E562.10404
G0 X54.709 Y127.117
G0 F4800 X54.779 Y127.752
G1 F2400 X55.744 Y128.718 E562.17216
G0 X55.814 Y128.788
G0 F4800 X55.179 Y128.718
G1 F2400 X54.779 Y128.318 E562.20039
G0 F4800 X71.628 Y124.127
G0 X71.628 Y109.872
G0 X54.847 Y109.718
G1 F2400 X53.279 Y108.151 E562.31098
G0 X53.209 Y108.081
G0 F4800 X53.279 Y108.716
G1 F2400 X54.281 Y109.718 E562.38168
G0 X54.351 Y109.788
G0 F4800 X53.716 Y109.718
G1 F2400 X53.279 Y109.282 E562.41248
G0 F4800 X53.279 Y107.585
G1 F2400 X55.413 Y109.718 E562.56301
G0 X55.483 Y109.788
G0 F4800 X55.978 Y109.718
G1 F2400 X53.279 Y107.019 E562.75344
G0 X53.209 Y106.949
G0 F4800 X53.279 Y106.454
G1 F2400 X56.544 Y109.718 E562.98376
G0 X56.614 Y109.788
G0 F4800 X57.11 Y109.718
G1 F2400 X53.279 Y105.888 E563.25403
G0 X53.209 Y105.818
G0 F4800 X53.279 Y105.322
G1 F2400 X57.675 Y109.718 E563.56419
G0 X57.745 Y109.788
G0 F4800 X58.241 Y109.718
G1 F2400 X53.279 Y104.757 E563.91425
G0 X53.209 Y104.687
G0 F4800 X53.279 Y104.191
G1 F2400 X58.807 Y109.718 E564.30424
G0 X58.877 Y109.788
G0 F4800 X59.372 Y109.718
G1 F2400 X53.279 Y103.625 E564.73414
G0 X53.209 Y103.555
G0 F4800 X53.279 Y103.06
G1 F2400 X59.938 Y109.718 E565.20393
G0 X60.008 Y109.788
G0 F4800 X60.504 Y109.718
G1 F2400 X53.279 Y102.494 E565.71366
G0 X53.209 Y102.424
G0 F4800 X53.279 Y101.928
G1 F2400 X61.069 Y109.718 E566.26328
G0 X61.139 Y109.788
G0 F4800 X61.635 Y109.718
G1 F2400 X53.279 Y101.363 E566.85281
G0 X53.209 Y101.293
G0 F4800 X53.762 Y101.28
G1 F2400 X62.201 Y109.718 E567.44819
G0 X62.271 Y109.788
G0 F4800 X62.767 Y109.718
G1 F2400 X54.328 Y101.28 E568.04357
G0 X54.258 Y101.21
G0 F4800 X54.894 Y101.28
G1 F2400 X63.332 Y109.718 E568.63892
G0 X63.402 Y109.788
G0 F4800 X63.898 Y109.718
G1 F2400 X55.459 Y101.28 E569.2343
G0 X55.389 Y101.21
G0 F4800 X56.025 Y101.28
G1 F2400 X64.464 Y109.718 E569.82968
G0 X64.534 Y109.788
G0 F4800 X65.029 Y109.718
G1 F2400 X56.591 Y101.28 E570.42503
G0 X56.521 Y101.21
G0 F4800 X57.156 Y101.28
G1 F2400 X65.595 Y109.718 E571.02041
G0 X65.665 Y109.788
G0 F4800 X66.161 Y109.718
G1 F2400 X57.722 Y101.28 E571.61579
G0 X57.652 Y101.21
G0 F4800 X58.288 Y101.28
G1 F2400 X66.726 Y109.718 E572.21114
G0 X66.796 Y109.788
G0 F4800 X67.292 Y109.718
G1 F2400 X58.853 Y101.28 E572.80652
G0 X58.783 Y101.21
G0 F4800 X59.419 Y101.28
G1 F2400 X67.858 Y109.718 E573.4019
G0 X67.928 Y109.788
G0 F4800 X68.423 Y109.718
G1 F2400 X59.985 Y101.28 E573.99725
G0 X59.915 Y101.21
G0 F4800 X60.55 Y101.28
G1 F2400 X68.989 Y109.718 E574.59263
G0 X69.059 Y109.788
G0 F4800 X69.555 Y109.718
G1 F2400 X61.116 Y101.28 E575.18801
G0 X61.046 Y101.21
G0 F4800 X61.682 Y101.28
G1 F2400 X70.12 Y109.718 E575.78336
G0 X70.19 Y109.788
G0 F4800 X70.686 Y109.718
G1 F2400 X62.248 Y101.28 E576.37871
G0 X62.178 Y101.21
G0 F4800 X62.813 Y101.28
G1 F2400 X71.252 Y109.718 E576.97409
G0 X71.322 Y109.788
G0 F4800 X71.322 Y109.5
;TIME_ELAPSED:448.721129
;LAYER:3
G1 F600 E570.97409
G0 F4800 X71.322 Y109.5 Z1.1
G0 X71.982 Y101.14
G0 X71.982 Y99.6
;TYPE:SUPPORT
G1 F600 E576.97409
G1 F4800 X74.648 Y99.6 E577.1071
G1 X77.101 Y99.6 E577.22948
G1 X77.101 Y70.501 E578.68123
G1 X74.648 Y70.501 E578.80361
G1 X74.648 Y99.6 E580.25537
G1 F600 E574.25537
G0 F4800 X71.982 Y99.6
G1 F600 E580.25537
G1 F4800 X71.982 Y70.501 E581.70712
G1 X70.6 Y70.501 E581.77607
G1 X70.246 Y70.147 E581.80105
G1 X69.702 Y70.147 E581.82819
G1 X69.348 Y70.501 E581.85316
G1 X69.316 Y70.501 E581.85476
G1 X69.316 Y99.6 E583.30651
G1 X66.65 Y99.6 E583.43952
G1 X66.65 Y70.501 E584.89128
G1 X63.984 Y70.501 E585.02428
G1 X63.984 Y99.6 E586.47604
G1 X61.318 Y99.6 E586.60905
G1 X61.318 Y70.501 E588.0608
G1 X58.652 Y70.501 E588.19381
G1 X58.652 Y99.6 E589.64556
G1 X57.1 Y99.6 E589.72299
G1 X57.1 Y70.501 E591.17475
G1 X58.652 Y70.501 E591.25218
G0 X122.899 Y70.501
G1 X122.899 Y99.6 E592.70393
G1 X125.302 Y99.6 E592.82382
G1 X127.968 Y99.6 E592.95683
G1 X127.968 Y70.501 E594.40858
G1 X129.4 Y70.501 E594.48002
G1 X129.754 Y70.147 E594.505
G1 X130.298 Y70.147 E594.53214
G1 X130.634 Y70.483 E594.55585
G1 X130.634 Y99.6 E596.0085
G1 X133.3 Y99.6 E596.14151
G1 X133.3 Y70.501 E597.59326
G1 X135.966 Y70.501 E597.72627
G1 X135.966 Y99.6 E599.17803
G1 X138.632 Y99.6 E599.31103
G1 X138.632 Y70.501 E600.76279
G1 X141.298 Y70.501 E600.8958
G1 X142.9 Y70.501 E600.97572
G1 X142.9 Y99.6 E602.42747
G1 X141.298 Y99.6 E602.5074
G1 X141.298 Y70.501 E603.95915
G0 X125.302 Y70.501
G1 X125.302 Y99.6 E605.41091
G0 X125.302 Y70.501
G1 X122.899 Y70.501 E605.53079
G1 F600 E599.53079
G0 F4800 X122.899 Y99.835
G0 X122.899 Y101.14
G0 X124.758 Y101.459
;TYPE:FILL
G1 F600 E605.53079
G1 F4500 X128.528 Y101.459 E605.71888
G1 X120.447 Y109.54 E606.28904
G1 X122.959 Y109.54 E606.41436
G1 X122.96 Y110.797 E606.47707
G1 X132.298 Y101.459 E607.13592
G1 X136.069 Y101.459 E607.32406
G1 X122.96 Y114.568 E608.24897
G1 X122.96 Y118.338 E608.43705
G1 X128.039 Y113.259 E608.7954
G1 X128.039 Y117.029 E608.98349
G1 X122.96 Y122.108 E609.34184
G1 X122.96 Y125.879 E609.52998
G1 X128.039 Y120.8 E609.88833
G1 X128.039 Y124.459 E610.07088
G1 X128.15 Y124.459 E610.07641
G1 X124.071 Y128.538 E610.36421
G1 X127.841 Y128.538 E610.5523
G1 X131.92 Y124.459 E610.84009
G1 X135.69 Y124.459 E611.02818
G1 X131.611 Y128.538 E611.31597
G1 X135.381 Y128.539 E611.50406
G1 X139.461 Y124.459 E611.79193
G1 X143.231 Y124.459 E611.98001
G1 X139.151 Y128.539 E612.26788
G1 X142.921 Y128.539 E612.45596
G1 X145.038 Y126.422 E612.60533
G0 F4800 X128.372 Y124.128
G0 X128.372 Y109.872
G0 X143.069 Y109.54
G1 F4500 X146.538 Y106.07 E612.85012
G1 X146.538 Y102.3 E613.03821
G1 X139.299 Y109.54 E613.54899
G1 X135.529 Y109.54 E613.73708
G1 X143.609 Y101.459 E614.3072
G1 X139.839 Y101.459 E614.49529
G1 X131.758 Y109.54 E615.06545
G0 F4800 X124.758 Y101.459
G1 F4500 X116.677 Y109.54 E615.6356
G1 X112.907 Y109.54 E615.82369
G1 X120.988 Y101.459 E616.39385
G1 X117.217 Y101.459 E616.58198
G1 X109.136 Y109.54 E617.15214
G1 X105.366 Y109.54 E617.34023
G1 X113.447 Y101.459 E617.91039
G1 X109.677 Y101.459 E618.09847
G1 X101.596 Y109.54 E618.66863
G1 X97.826 Y109.539 E618.85672
G1 X105.906 Y101.459 E619.42681
G1 X102.136 Y101.459 E619.61489
G1 X94.056 Y109.539 E620.18498
G1 X90.286 Y109.539 E620.37307
G1 X98.366 Y101.459 E620.94315
G1 X94.596 Y101.459 E621.13124
G1 X86.515 Y109.539 E621.70136
G1 X82.745 Y109.539 E621.88945
G1 X90.825 Y101.459 E622.45954
G1 X87.055 Y101.459 E622.64762
G1 X78.975 Y109.539 E623.21771
G0 F4800 X77.372 Y109.872
G0 X77.039 Y111.474
G1 F4500 X77.039 Y115.244 E623.4058
G1 X71.96 Y120.324 E623.76418
G1 X71.96 Y124.095 E623.95232
G1 X77.039 Y119.015 E624.3107
G1 X77.039 Y122.785 E624.49879
G1 X71.286 Y128.538 E624.90469
G1 X75.057 Y128.538 E625.09283
G1 X77.039 Y126.555 E625.23271
G0 F4800 X71.596 Y124.458
G1 F4500 X67.516 Y128.538 E625.52057
G1 X63.746 Y128.538 E625.70866
G1 X67.826 Y124.458 E625.99652
G1 X64.056 Y124.458 E626.18461
G1 X59.976 Y128.538 E626.47248
G1 X56.205 Y128.538 E626.66061
G1 X60.285 Y124.458 E626.94848
G1 X56.515 Y124.458 E627.13657
G1 X54.959 Y126.014 E627.24635
G0 F4800 X71.628 Y124.127
G0 X71.628 Y109.872
G0 X56.353 Y109.539
G1 F4500 X64.433 Y101.459 E627.81644
G1 X68.203 Y101.459 E628.00452
G1 X60.123 Y109.539 E628.57461
G1 X63.894 Y109.539 E628.76275
G1 X71.974 Y101.459 E629.33283
G1 X75.744 Y101.459 E629.52092
G1 X67.664 Y109.539 E630.09101
G1 X71.434 Y109.539 E630.27909
G1 X79.514 Y101.459 E630.84918
G1 X83.285 Y101.459 E631.03732
G1 X71.96 Y112.784 E631.83636
G1 X71.96 Y116.554 E632.02444
G1 X77.039 Y111.474 E632.38283
G0 F4800 X60.663 Y101.459
G1 F4500 X53.46 Y108.662 E632.89104
G1 X53.46 Y109.539 E632.93479
G1 X56.353 Y109.539 E633.07913
G0 F4800 X53.46 Y104.892
G1 F4500 X56.893 Y101.459 E633.32134
G1 X60.663 Y101.459 E633.50943
G0 F4800 X53.17 Y101.17
G0 X53.1 Y101.1
;TYPE:WALL-INNER
G1 F3600 X146.9 Y101.1 E638.18913
G1 X146.9 Y109.9 E638.62816
G1 X128.4 Y109.9 E639.55113
G1 X128.4 Y123.9 E640.2496
G1 X128.4 Y124.1 E640.25957
G1 X128.6 Y124.1 E640.26603
G1 X145.2 Y124.099 E641.09421
G1 X145.4 Y124.099 E641.10419
G1 X145.4 Y124.299 E641.11065
G1 X145.4 Y128.899 E641.34015
G1 X122.6 Y128.899 E642.47764
G1 X122.6 Y109.9 E643.42551
G1 X77.4 Y109.9 E645.68054
G1 X77.4 Y128.899 E646.62841
G1 X54.6 Y128.899 E647.7659
G1 X54.6 Y124.099 E648.00538
G1 X71.6 Y124.099 E648.85351
G1 X71.6 Y109.9 E649.5619
G1 X53.1 Y109.9 E650.48487
G1 X53.1 Y101.1 E650.9239
G0 F4800 X52.7 Y100.7
;TYPE:WALL-OUTER
G1 F3000 X147.3 Y100.7 E655.64352
G1 X147.3 Y110.3 E656.12246
G1 X128.8 Y110.3 E657.04543
G1 X128.8 Y123.5 E657.70398
G1 X128.8 Y123.7 E657.71396
G1 X129 Y123.7 E657.72042
G1 X145.6 Y123.699 E658.5486
G1 X145.8 Y123.699 E658.55858
G1 X145.8 Y123.899 E658.56504
G1 X145.8 Y129.299 E658.83444
G1 X122.2 Y129.299 E660.01185
G1 X122.2 Y110.3 E660.95972
G1 X77.8 Y110.3 E663.17484
G1 X77.8 Y129.299 E664.12271
G1 X54.2 Y129.299 E665.30011
G1 X54.2 Y123.699 E665.5795
G1 X71.2 Y123.699 E666.42763
G1 X71.2 Y110.3 E667.09611
G1 X52.7 Y110.3 E668.01908
G1 X52.7 Y100.7 E668.49803
G0 F4800 X53.5 Y101.382
;TIME_ELAPSED:484.107965
;LAYER:4
G1 F600 E662.49803
G0 F4800 X53.5 Y101.382 Z1.4
G0 X57.1 Y101.14
G0 X57.1 Y99.6
;TYPE:SUPPORT
G1 F600 E668.49803
G1 F4800 X57.1 Y70.501 E669.94978
G1 X58.652 Y70.501 E670.02721
G1 X61.318 Y70.501 E670.16022
G1 X61.318 Y99.6 E671.61197
G1 X63.984 Y99.6 E671.74498
G1 X63.984 Y70.501 E673.19674
G1 X66.65 Y70.501 E673.32974
G1 X66.65 Y99.6 E674.7815
G1 X69.316 Y99.6 E674.91451
G1 X69.316 Y70.501 E676.36626
G1 X69.348 Y70.501 E676.36786
G1 X69.702 Y70.147 E676.39283
G1 X70.246 Y70.147 E676.41997
G1 X70.6 Y70.501 E676.44495
G1 X71.982 Y70.501 E676.5139
G1 X71.982 Y99.6 E677.96565
G1 X74.648 Y99.6 E678.09866
G1 X77.101 Y99.6 E678.22104
G1 X77.101 Y70.501 E679.6728
G1 X74.648 Y70.501 E679.79518
G1 X74.648 Y99.6 E681.24693
G0 X58.652 Y99.6
G1 X58.652 Y70.501 E682.69869
G0 X58.652 Y99.6
G1 X57.1 Y99.6 E682.77612
G0 X122.899 Y99.6
G1 X125.302 Y99.6 E682.896
G1 X127.968 Y99.6 E683.02901
G1 X127.968 Y70.501 E684.48077
G1 X129.4 Y70.501 E684.55221
G1 X129.754 Y70.147 E684.57718
G1 X130.298 Y70.147 E684.60433
G1 X130.634 Y70.483 E684.62803
G1 X130.634 Y99.6 E686.08068
G1 X133.3 Y99.6 E686.21369
G1 X133.3 Y70.501 E687.66545
G1 X135.966 Y70.501 E687.79845
G1 X135.966 Y99.6 E689.25021
G1 X138.632 Y99.6 E689.38322
G1 X138.632 Y70.501 E690.83497
G1 X141.298 Y70.501 E690.96798
G1 X142.9 Y70.501 E691.0479
G1 X142.9 Y99.6 E692.49966
G1 X141.298 Y99.6 E692.57958
G1 X141.298 Y70.501 E694.03134
G0 X125.302 Y70.501
G1 X125.302 Y99.6 E695.48309
G1 F600 E689.48309
G0 F4800 X122.899 Y99.6
G1 F600 E695.48309
G1 F4800 X122.899 Y70.501 E696.93485
G1 X125.302 Y70.501 E697.05473
G1 F600 E691.05473
G0 F4800 X125.302 Y99.835
G0 X125.302 Y101.14
G0 X124.081 Y101.459
;TYPE:FILL
G1 F600 E697.05473
G1 F4500 X127.851 Y101.459 E697.24282
G1 X135.932 Y109.54 E697.81298
G1 X139.702 Y109.54 E698.00106
G1 X131.622 Y101.459 E698.57119
G1 X135.392 Y101.459 E698.75927
G1 X143.472 Y109.54 E699.3294
G1 X146.538 Y109.54 E699.48236
G1 X146.539 Y108.836 E699.51748
G1 X139.162 Y101.459 E700.03797
G1 X142.933 Y101.459 E700.2261
G1 X146.539 Y105.066 E700.48056
G0 F4800 X132.161 Y109.54
G1 F4500 X124.081 Y101.459 E701.05069
G0 F4800 X120.311 Y101.459
G1 F4500 X128.391 Y109.54 E701.62081
G1 X132.161 Y109.54 E701.80889
G0 F4800 X128.372 Y109.872
G0 X128.039 Y112.958
G1 F4500 X116.541 Y101.459 E702.62018
G1 X120.311 Y101.459 E702.80826
G0 F4800 X112.77 Y101.459
G1 F4500 X120.85 Y109.539 E703.37835
G0 F4800 X122.628 Y109.872
G0 X122.959 Y111.648
